lbusellato/CoLeCT/reproductions/recording_20240121-202516.csv
timestamp target_q_0 target_q_1 target_q_2 target_q_3 target_q_4 target_q_5 target_qd_0 target_qd_1 target_qd_2 target_qd_3 target_qd_4 target_qd_5 target_qdd_0 target_qdd_1 target_qdd_2 target_qdd_3 target_qdd_4 target_qdd_5 target_current_0 target_current_1 target_current_2 target_current_3 target_current_4 target_current_5 target_moment_0 target_moment_1 target_moment_2 target_moment_3 target_moment_4 target_moment_5 actual_q_0 actual_q_1 actual_q_2 actual_q_3 actual_q_4 actual_q_5 actual_qd_0 actual_qd_1 actual_qd_2 actual_qd_3 actual_qd_4 actual_qd_5 actual_current_0 actual_current_1 actual_current_2 actual_current_3 actual_current_4 actual_current_5 actual_TCP_pose_0 actual_TCP_pose_1 actual_TCP_pose_2 actual_TCP_pose_3 actual_TCP_pose_4 actual_TCP_pose_5 actual_TCP_speed_0 actual_TCP_speed_1 actual_TCP_speed_2 actual_TCP_speed_3 actual_TCP_speed_4 actual_TCP_speed_5 actual_TCP_force_0 actual_TCP_force_1 actual_TCP_force_2 actual_TCP_force_3 actual_TCP_force_4 actual_TCP_force_5 target_TCP_pose_0 target_TCP_pose_1 target_TCP_pose_2 target_TCP_pose_3 target_TCP_pose_4 target_TCP_pose_5 target_TCP_speed_0 target_TCP_speed_1 target_TCP_speed_2 target_TCP_speed_3 target_TCP_speed_4 target_TCP_speed_5 actual_tool_accelerometer_0 actual_tool_accelerometer_1 actual_tool_accelerometer_2 target_TCP_force_0 target_TCP_force_1 target_TCP_force_2 target_TCP_force_3 target_TCP_force_4 target_TCP_force_5 kmp_target_TCP_pose_0 kmp_target_TCP_pose_1 kmp_target_TCP_pose_2 kmp_target_TCP_pose_3 kmp_target_TCP_pose_4 kmp_target_TCP_pose_5 timestamp
13887.328 -0.9588694683251688 -1.402912455268499 2.18889255419648 -2.3539331734550366 -1.560832521556371 0.6136413688098276 -1.674720266153784e-05 2.993687847974158e-05 2.509238810066705e-05 -5.586180645611449e-05 2.350187900024281e-05 6.487746282202167e-06 -0.005521557280951939 0.00987019699194569 0.008272967193967418 -0.018417652809521456 0.007748575910238031 0.0021390117169728384 -0.0028708038433589785 -2.320347660937746 -1.6193066806670111 -0.2839801419952783 0.00209650902207584 0.0001982691166538785 -0.01685042991244037 -23.327790237789102 -16.17608402852851 -2.1786695202236115 0.013317117064366286 0.00045466865916157627 -0.9588325659381312 -1.4029084008983155 2.18891412416567 -2.3539473019041957 -1.5608599821673792 0.6136493682861328 0.0 0.0 -0.0 -0.0 0.0 0.0 -0.416359007358551 -1.765718698501587 -1.132950782775879 -0.42600491642951965 -0.03512249514460564 0.13522158563137054 -0.3650002374390375 0.2899836922842688 0.04999142064681336 3.1400064783554384 4.553628023409441e-05 4.560046023401964e-05 0.0 0.0 0.0 0.0 0.0 0.0 0.05393916713079297 0.19119928815661252 -0.053175704165533313 0.0007801532151962065 0.012268161554320353 -0.0060426938262118255 -0.3650000056897131 0.28999999315762837 0.049999954433559396 3.140000070371196 -9.590919830852695e-08 -8.307636135853926e-08 1.4348106377598753e-06 5.602993732275773e-07 -1.7272682221102893e-05 -1.2879715724291374e-05 1.9717390667750856e-05 -2.2799795643586216e-05 -0.05746084079146385 0.13407528400421143 -9.27034854888916 0.573333811394813 0.03240225742875768 -9.364376319394239 0.0036230167559646613 0.019217148483011568 -0.0018565617518771136 -0.365 0.29 0.05 3.1400000000003274 -4.182523777896853e-14 1.8425963013474134e-14 16799.000321149826
13887.338 -0.9588702451819415 -1.402911066578862 2.1888937181635026 -2.353935764730938 -1.5608314313686993 0.6136416697585734 -0.00012263933819774137 0.0002192269980432139 0.0001837509185262305 -0.00040907458486974166 0.00017210366089129026 4.750960069564172e-05 -0.010643147974720435 0.019025423779961415 0.015946663180610443 -0.03550118100204003 0.014935866078813476 0.004123079260343054 -0.011782063454185261 -2.3022029185798525 -1.60713260672014 -0.29085249887741266 0.004584819815474479 0.0011333320532261285 -0.032480130598864496 -23.294055277536767 -16.154611743152014 -2.1811455508391018 0.014608374256238652 0.0008764023670645936 -0.9588683287249964 -1.4029084008983155 2.18891412416567 -2.3539592228331507 -1.5608599821673792 0.6136374473571777 0.0 0.0 -0.0 -0.0 0.0 0.0 -0.3878213167190552 -1.7017980813980103 -1.10855233669281 -0.44521239399909973 -0.02470092475414276 0.11601961404085159 -0.36499161183887624 0.28999920633512877 0.04999260537219083 3.140016225878963 8.2821508345791e-06 3.476898180295401e-05 0.0 0.0 0.0 0.0 0.0 0.0 0.18423324204392127 0.26449048765671124 -0.0944086276488564 0.001410808082364415 0.01719602105274172 -0.00329479172976443 -0.36499993913231504 0.2900000191476233 0.0499991532018868 3.1399994729157075 -1.7552288079271107e-06 -1.5203767639504597e-06 1.0507228773371279e-05 4.102815687124283e-06 -0.00012648720519441872 -9.431776965548614e-05 0.00014438999915638228 -0.00016696231618167496 -0.05746084079146385 0.1149216815829277 -9.155426979064941 0.573333811394813 0.03240225742875768 -9.364376319394239 0.0036230167559646613 0.019217148483011568 -0.0018565617518771136 -0.365 0.29 0.05 3.1400000000003274 -4.182523777896853e-14 1.8425963013474134e-14 16799.000321149826
13887.348 -0.958871988597398 -1.40290795009322 2.1888963303285403 -2.3539415800505914 -1.5608289847786665 0.6136423451452276 -0.00020319108794106039 0.0003632192814175576 0.0003044418670385405 -0.0006777622195012812 0.0002851444785349344 7.871477159899885e-05 -0.00638903682059766 0.011420881713242181 0.00957271462898035 -0.021311209265739706 0.008965937433158544 0.0024750671292483872 -0.01603269894248985 -2.2936562164956626 -1.601185089572088 -0.29556763312500106 0.0062046643656322896 0.001757473390919592 -0.01949749442551713 -23.322301194891622 -16.171823672191902 -2.1790817161558254 0.013488497091605326 0.0005261006521812058 -0.9588444868670862 -1.4029323619655152 2.188901726399557 -2.3539349041380824 -1.5608599821673792 0.6136133670806885 0.0 0.0 -0.0 -3.1013189527584473e-07 0.0 0.0 -0.4241616129875183 -1.6858494281768799 -1.0977520942687988 -0.4603002965450287 -0.030963946133852005 0.13027408719062805 -0.36500030450191845 0.2899930829056445 0.050005569264028965 3.1400260911774542 8.317357962073064e-05 2.3931402406708282e-05 -4.5405395617739585e-08 6.401830275449649e-08 3.082293085992253e-08 2.5359051788064534e-07 1.78509859148899e-07 2.8056897643653433e-09 0.1638730678905867 0.3965496516057049 0.09620510466575549 -0.000759089664669129 0.01931823909709363 -0.005005224177388907 -0.36499978976139535 0.29000007746850964 0.04999735508924319 3.1399981321072654 -5.4790573782340724e-06 -4.7459533189600486e-06 1.7409114597206486e-05 6.7967186222274195e-06 -0.00020956553662690238 -0.00015626717361157078 0.00023922816462851386 -0.00027662618201736654 -0.038307227194309235 0.09576806426048279 -9.251194953918457 0.573333811394813 0.03240225742875768 -9.364376319394239 0.0036230167559646613 0.019217148483011568 -0.0018565617518771136 -0.365 0.29 0.05 3.1400000000003274 -4.182523777896853e-14 1.8425963013474134e-14 16799.000321149826
13887.358 -0.9588742969124269 -1.4029038238072875 2.1888997888844433 -2.3539492796437873 -1.560825745447195 0.613643239369934 -0.00024443358040209375 0.0004369433257670277 0.00036623562720000663 -0.0008153302780665323 0.0003430213728773495 9.469181826682323e-05 -0.002704882740345291 0.0048351805250757 0.004052734567494554 -0.009022380699885701 0.0037958475256338886 0.0010478522409762547 -0.017741903219345836 -2.290178083394217 -1.5988804925286229 -0.29789357759091345 0.006982535637799574 0.002060927952430713 -0.008254545566108456 -23.34597234366491 -16.18813433848531 -2.1773458614512786 0.01251865416561503 0.00022273163386650683 -0.9588564077960413 -1.4028963607600708 2.1888893286334437 -2.3539115391173304 -1.5607999006854456 0.6136255264282227 0.0 0.0 -0.0 -0.001011572894640267 0.0 0.0 -0.40034452080726624 -1.7074651718139648 -1.1579794883728027 -0.42907094955444336 -0.013915935531258583 0.12176580727100372 -0.3650073151996763 0.28998592799842715 0.049991829995738396 3.139953058725277 4.4862418431909556e-05 -1.0807037563875484e-05 -0.00014810117660332087 0.0002088172643514637 0.00010052468475231221 0.0008271558139723861 0.0005822449933493247 9.151409848362343e-06 -0.08367623091574233 0.14068673196408132 0.0630038359764067 0.005390527905969515 0.012405657338774955 -0.00860085815384636 -0.3649995919842164 0.29000015467460705 0.04999497436423159 3.1399963568426155 -1.0409471508783418e-05 -9.016677552419862e-06 2.0943581444921025e-05 8.174840327906206e-06 -0.0002521006536896385 -0.00018798497825965832 0.0002877855397279539 -0.0003327740476349011 0.0 0.09576806426048279 -9.193734169006348 0.573333811394813 0.03240225742875768 -9.364376319394239 0.0036230167559646613 0.019217148483011568 -0.0018565617518771136 -0.365 0.29 0.05 3.1400000000003274 -4.182523777896853e-14 1.8425963013474134e-14 16799.000321149826
13887.367999999999 -0.9588768167465744 -1.402899319415087 2.188903564360125 -2.353957684778109 -1.5608222092842539 0.6136442155356348 -0.00025319874233618276 0.00045261170947857556 0.0003793684976010799 -0.0008445672674658811 0.00035532180194810625 9.808737939077801e-05 0.00023688179573433388 -0.00042344391459891995 -0.00035492077232746055 0.000790140592954458 -0.0003324237041191225 -9.176629911511469e-05 -0.017435535779719603 -2.2906879476427817 -1.5993301030279292 -0.2982617417672707 0.007074051178417733 0.002102334241711668 0.0007230068722529008 -23.36381549126237 -16.201112592159813 -2.1760054905398243 0.011744249300296921 -1.950585985955938e-05 -0.9588683287249964 -1.4029323619655152 2.188877884541647 -2.3539592228331507 -1.560824219380514 0.6136255264282227 0.0 0.0 -0.0 -0.0006748391897417605 0.0 0.0 -0.4774537682533264 -1.703244924545288 -1.0961127281188965 -0.4437776803970337 -0.009036149829626083 0.12432916462421417 -0.3650116380239665 0.29001195727441553 0.05001696893600996 3.140044880573494 2.6950998018550338e-05 -6.550639613136907e-05 -9.879581527573251e-05 0.0001393018529637868 6.707814372120934e-05 0.0005518159111990131 0.00038841969540065653 6.1051112831721465e-06 0.3463796013680925 0.5395713848422812 0.007227557293481618 -0.0053727411892274856 0.020230880918447224 0.0036843854937860755 -0.36499937607464616 0.29000023893990384 0.04999237549809862 3.139994418892511 -1.579166985647429e-05 -1.3678742714110174e-05 2.1695583485426694e-05 8.466359849444828e-06 -0.0002611393672685831 -0.0001947255418340117 0.0002981055968101122 -0.0003447069756936567 -0.019153613597154617 0.13407529890537262 -9.136273384094238 0.573333811394813 0.03240225742875768 -9.364376319394239 0.0036230167559646613 0.019217148483011568 -0.0018565617518771136 -0.365 0.29 0.05 3.1400000000003274 -4.182523777896853e-14 1.8425963013474134e-14 16799.000321149826
13887.377999999999 -0.9588792701453688 -1.4028949337815497 2.1889072402958725 -2.353965868311228 -1.5608187663521091 0.6136451659647788 -0.00023735757093898006 0.0004242942425342642 0.000355633756485257 -0.0007917275772274129 0.0003330913970973848 9.195063111218478e-05 0.0023750211048945147 -0.0042455897730775405 -0.0035584565361013176 0.007922108200553168 -0.0033329383279934177 -0.000920063537246385 -0.015676889023471637 -2.2941850978803084 -1.6018035485345938 -0.2971571313389241 0.006659369546928853 0.0019477797851846965 0.007248094075134886 -23.37689174862888 -16.210929336515747 -2.1750458469986675 0.011224312941733488 -0.0001955688496081572 -0.9588683287249964 -1.40292044103656 2.18886644044985 -2.353959699670309 -1.560824219380514 0.6136853694915771 0.0 0.0 -0.0 -0.0008025191491469741 0.0 0.0 -0.4944872260093689 -1.652517318725586 -1.1123709678649902 -0.4599437713623047 -0.008786684833467007 0.12058867514133453 -0.36501444468578587 0.29001592480389016 0.050015992382136026 3.140044869496218 -6.696062682567357e-05 -6.545421274382339e-05 -0.00011748804337179197 0.0001656578404517295 7.976936676190904e-05 0.0006562197835245076 0.000461908941367119 7.260188960286111e-06 0.33679903282911594 0.5896675046658972 -0.15337826847032943 -0.009199633425853528 0.024038048014132955 0.00011118677102681855 -0.3649991658480414 0.2900003209679006 0.04998984516428853 3.1399925320248436 -2.1031959819675175e-05 -1.8217892783513162e-05 2.0339148221952398e-05 7.935136986266893e-06 -0.00024480010655463316 -0.0001825423225165274 0.0002794551889320942 -0.0003231406377214457 -0.019153613597154617 0.17238251864910126 -9.232041358947754 0.573333811394813 0.03240225742875768 -9.364376319394239 0.0036230167559646613 0.019217148483011568 -0.0018565617518771136 -0.365 0.29 0.05 3.1400000000003274 -4.182523777896853e-14 1.8425963013474134e-14 16799.000321149826
13887.387999999999 -0.9588814589603007 -1.4028910211194514 2.1889105198104644 -2.353973169299426 -1.5608156947183556 0.6136460138963795 -0.00020485122327310593 0.0003661856082734624 0.0003069301487044202 -0.0006832994701713938 0.00028747428552556605 7.935795623953496e-05 0.0037352708670557178 -0.00667716896352033 -0.005596517478334562 0.012459367646489028 -0.005241816390721965 -0.0014470117600806631 -0.013007127558903533 -2.29967296694273 -1.6053608201571916 -0.2950473959392375 0.005896752861329351 0.0016630057203341176 0.011399113508776596 -23.38640551431967 -16.21570049909188 -2.1742851341686418 0.010837429238881764 -0.0003075770471664802 -0.9588444868670862 -1.4029084008983155 2.18891412416567 -2.353971143762106 -1.560824219380514 0.6136133670806885 0.0 0.0 -0.0 -0.0006712033064104617 0.0 0.0 -0.4433056116104126 -1.714247703552246 -1.1282063722610474 -0.46101224422454834 -0.007623218931257725 0.11765676736831665 -0.36500765791040235 0.2899877617885444 0.049993799650963455 3.1400053787765163 8.357410407849125e-05 -2.1907459692077212e-05 -9.82686927884392e-05 0.00013855160940034824 6.670854076947163e-05 0.0005488334368410453 0.0003863403494337445 6.072194084075618e-06 -0.009062901977121899 0.1808934863778219 0.037461098994644504 0.004616842299307103 0.013942237620725087 -0.0018886012043139984 -0.36499897828382327 0.29000039413461554 0.04998758772358908 3.1399908486347243 -2.5707111848844202e-05 -2.226752393751604e-05 1.7554561101045304e-05 6.8469753012119725e-06 -0.0002112733373509581 -0.0001575426541405893 0.00024118388389642042 -0.00027888624430178117 0.038307227194309235 0.07661445438861847 -9.27034854888916 0.573333811394813 0.03240225742875768 -9.364376319394239 0.0036230167559646613 0.019217148483011568 -0.0018565617518771136 -0.365 0.29 0.05 3.1400000000003274 -4.182523777896853e-14 1.8425963013474134e-14 16799.000321149826
13887.398 -0.9588832610463065 -1.402887799771313 2.188913219890919 -2.3539791803148873 -1.5608131657928972 0.6136467120124507 -0.00016297401705799136 0.0002913266665534553 0.00024418533950781255 -0.0005436139210480983 0.00022870672106214555 6.31350633433604e-05 0.004404967103854851 -0.007874197917701053 -0.006600000517664739 0.014693180967917385 -0.0061816288732252644 -0.0017064517467968443 -0.009903558588916839 -2.3059127418778407 -1.6096238451429148 -0.29241718627427854 0.00495245562433926 0.001307715045370126 0.013442688342607784 -23.39014746425854 -16.21860898307444 -2.1739805386047157 0.010632891625686543 -0.00036272364959613796 -0.9588683287249964 -1.402956323032715 2.18886644044985 -2.3539592228331507 -1.560836140309469 0.6136374473571777 0.0 0.0 -0.0 -0.0005509709590114653 1.3391224240599797e-10 0.0 -0.4298780560493469 -1.686232566833496 -1.1194192171096802 -0.46917471289634705 0.0065731871873140335 0.1303517073392868 -0.3650142220985843 0.29002087546541977 0.05003198861803748 3.14008071649396 8.289394912530487e-06 -8.21426684958902e-05 -8.066054605014242e-05 0.00011373109684508616 5.477073868432785e-05 0.000450528902909226 0.0003171243601439439 4.984523168381778e-06 0.0020159927660675777 0.06706774152256152 0.04984949738808739 0.009017775712908597 0.013913879236689476 -0.003201520821076196 -0.36499882385261073 0.29000045436286637 0.049985729146582836 3.139989462666199 -2.955623520800677e-05 -2.560165063074508e-05 1.3966430253871537e-05 5.446423109298745e-06 -0.00016808247452983332 -0.00012533643901951102 0.00019187950689263295 -0.0002218742844683721 0.0 0.07661445438861847 -9.27034854888916 0.573333811394813 0.03240225742875768 -9.364376319394239 0.0036230167559646613 0.019217148483011568 -0.0018565617518771136 -0.365 0.29 0.05 3.1400000000003274 -4.182523777896853e-14 1.8425963013474134e-14 16799.000321149826
13887.408 -0.9588846207807613 -1.4028853691572296 2.1889152571920105 -2.3539837158264003 -1.5608112576334499 0.6136472387646598 -0.00011790324952831328 0.00021075982887406946 0.00017665534004602637 -0.00039327647440407003 0.00016545744757233758 4.5674941627998715e-05 0.004508967451744006 -0.008060052508085391 -0.00675583529163859 0.015040043369385359 -0.006327581842269225 -0.001746745598829591 -0.006754578312741011 -2.3123509523537153 -1.6139990776832487 -0.2896244829537862 0.003961178954743346 0.0009319241227487025 0.013760266242481316 -23.39132977617913 -16.219583431052985 -2.173945903182468 0.010605518927452694 -0.00037128851435534906 -0.9588926474200647 -1.4028844398311158 2.188925568257467 -2.3539592228331507 -1.5608480612384241 0.6136734485626221 0.0 0.0 -0.0 -0.00044840050395578146 1.589090322028517e-16 0.0 -0.44223129749298096 -1.7240915298461914 -1.2008105516433716 -0.46866852045059204 0.0012948628282174468 0.1285710632801056 -0.36498197469182064 0.2899991630062884 0.04997758693630064 3.1399803882078787 -8.647425352884597e-05 5.143285253291988e-05 -6.564562041976317e-05 9.256496576368578e-05 4.455958268908195e-05 0.00036666308619315194 0.0002580789368328964 4.056542162217898e-06 0.3613134487177557 0.516394163140733 -0.10214566822698073 -0.0036536595947738123 0.022740403806064756 0.007504849949693823 -0.3649987073257571 0.29000049980156095 0.04998432679299883 3.139988416902286 -3.246052609402455e-05 -2.811736204642046e-05 1.0104215734925743e-05 3.93982665394208e-06 -0.00012159861491989316 -9.067431781107178e-05 0.00013881494711591723 -0.00016051452536096816 0.019153613597154617 0.19153612852096558 -9.21288776397705 0.573333811394813 0.03240225742875768 -9.364376319394239 0.0036230167559646613 0.019217148483011568 -0.0018565617518771136 -0.365 0.29 0.05 3.1400000000003274 -4.182523777896853e-14 1.8425963013474134e-14 16799.000321149826
13887.418 -0.9588855362551243 -1.4028837326850638 2.1889166288533235 -2.353986769470591 -1.5608099729187401 0.6136475934133174 -7.445365575458833e-05 0.00013309103264422774 0.0001115543299399169 -0.000248346646202183 0.00010448321072273556 2.8842844791284642e-05 0.004188630448931363 -0.007487439495523773 -0.0062758710703825216 0.013971540779866842 -0.005878041242857179 -0.001622648066246235 -0.003849367876654511 -2.318134238049899 -1.6179715948571123 -0.28695813983871626 0.003023603276360559 0.0005741481121001514 0.012782430274877687 -23.388126916171736 -16.218038558598654 -2.174111997706153 0.010718080317824733 -0.00034491032288294865 -0.9588683287249964 -1.4028963607600708 2.1888540426837366 -2.353983064691061 -1.5608599821673792 0.6136853694915771 0.0 0.0 -0.0 -0.00041919740033335984 1.8857186038247634e-22 0.0 -0.45310208201408386 -1.654921293258667 -1.168656826019287 -0.453931987285614 0.00632261298596859 0.14413852989673615 -0.36501272459273243 0.29002911073668425 0.05001220240613585 3.140074997859433 -6.644445027846957e-05 -3.0150008298413576e-05 -6.136986441536504e-05 8.653130622557725e-05 4.166892049638996e-05 0.00034277761531186505 0.00024127906021012237 3.7923596188054243e-06 -0.09891856705141423 0.32848061030834724 0.0012552824109155526 0.0032276075810546714 0.009744529993987457 -0.004116399957072474 -0.36499862886987566 0.2900005303921385 0.04998338262617666 3.13998771281397 -3.4415909281262645e-05 -2.9811124935867986e-05 6.38068887457017e-06 2.4878095574523893e-06 -7.67870959754527e-05 -5.7259068131624754e-05 8.765900695346096e-05 -0.00010136184872769509 0.019153613597154617 0.13407529890537262 -9.155426979064941 0.573333811394813 0.03240225742875768 -9.364376319394239 0.0036230167559646613 0.019217148483011568 -0.0018565617518771136 -0.365 0.29 0.05 3.1400000000003274 -4.182523777896853e-14 1.8425963013474134e-14 16799.000321149826
13887.428 -0.9588860451510186 -1.4028828229978147 2.1889173913337507 -2.353988466936684 -1.560809258768761 0.6136477905561717 -3.60161521444036e-05 6.438146595432366e-05 5.396302990133923e-05 -0.00012013493560989114 5.0542625637574725e-05 1.3952417499286337e-05 0.0035850611126431176 -0.006408536314950197 -0.005371527834530099 0.01195828779732011 -0.005031031584668 -0.001388828365311845 -0.0013785460250239601 -2.32331711606205 -1.621377381167266 -0.2846156556703482 0.0021963838810802054 0.00026106749786821446 0.01094078983572787 -23.385977780732038 -16.215573442742713 -2.1743843485189296 0.010834618208478435 -0.00029520957314577536 -0.9588444868670862 -1.4029084008983155 2.1888893286334437 -2.353971143762106 -1.5607879797564905 0.6136493682861328 0.0 0.0 -0.0 -0.0003578870673663914 0.0003067510260734707 0.0 -0.3773922324180603 -1.735468864440918 -1.1645915508270264 -0.45530539751052856 0.0032754477579146624 0.1312485933303833 -0.3650227360412101 0.28999325868302045 0.05000314128154673 3.140004786126178 2.699011742309511e-05 -9.078368242339214e-05 -0.00011575549100099753 2.9245939728603183e-05 3.5657212451360426e-05 0.00011599104469315919 0.00045677796848362566 2.3725941820643942e-06 0.289205372397926 0.4626860997991074 0.25535485461024415 -0.0013368747264496349 0.021661290674454884 -0.001826515884737397 -0.3649985852574467 0.29000054739649445 0.04998285778135733 3.139987321423086 -3.5502871490770974e-05 -3.07526571594418e-05 3.0865827990543492e-06 1.2034535704071373e-06 -3.71448829657952e-05 -2.7698458061501057e-05 4.240409898290095e-05 -4.903270189120678e-05 0.038307227194309235 0.019153613597154617 -9.193734169006348 0.573333811394813 0.03240225742875768 -9.364376319394239 0.0036230167559646613 0.019217148483011568 -0.0018565617518771136 -0.365 0.29 0.05 3.1400000000003274 -4.182523777896853e-14 1.8425963013474134e-14 16799.000321149826
13887.438 -0.958886210889526 -1.4028825267273222 2.188917639658842 -2.3539890197713724 -1.5608090261826115 0.6136478547621507 -4.638318020923112e-06 8.29148852426483e-06 6.949448863198781e-06 -1.547150166886759e-05 6.509092752123322e-06 1.796848519676127e-06 0.0028267277509819166 -0.005052962802620797 -0.0042352949036761345 0.009428781492015759 -0.003966839698943403 -0.0010950568166689933 0.0005560374944688956 -2.3271383241388466 -1.624017646656472 -0.28272326430222255 0.001540167319484566 8.32948232980026e-06 0.008626374324217317 -23.380020147576595 -16.212143670446093 -2.1747595644787485 0.011076596780459328 -0.00023276544506130965 -0.9588564077960413 -1.40292044103656 2.18891412416567 -2.3539592228331507 -1.5608122984515589 0.6136612892150879 0.0 0.0 -0.0 -0.00028764564194716513 0.0003003041783813387 0.0 -0.4479469060897827 -1.7090657949447632 -1.1291804313659668 -0.4482194781303406 0.005226030945777893 0.12943170964717865 -0.36500569311573927 0.2899890304075866 0.04999800228447254 3.1399986222949883 -1.0606236896940503e-05 -3.725015429516167e-05 -0.00010414041656328635 1.5686459796439386e-05 2.8670277971526193e-05 6.227308882287105e-05 0.0004110762057797593 1.747914840091467e-06 -0.22654958267697373 0.1568192235063805 0.0023520629220045264 0.006022282765521984 0.012177490147389383 -0.0014542642889883222 -0.36499857105389505 0.29000055293481025 0.049982686848646485 3.139987193953887 -3.58568761025075e-05 -3.1059298230244464e-05 3.9747229576150267e-07 1.5503369547045066e-07 -4.783696237165562e-06 -3.5671372111290786e-06 5.460970246916571e-06 -6.314641028163685e-06 -0.038307227194309235 0.0 -9.251194953918457 0.573333811394813 0.03240225742875768 -9.364376319394239 0.0036230167559646613 0.019217148483011568 -0.0018565617518771136 -0.365 0.29 0.05 3.1400000000003274 -4.182523777896853e-14 1.8425963013474134e-14 16799.000321149826
13887.447999999999 -0.9588861102027231 -1.4028827067095762 2.1889174887983174 -2.353988683923035 -1.5608091674798708 0.613647815756579 1.8798102133548525e-05 -3.3602630469045075e-05 -2.816533661064046e-05 6.270248289536663e-05 -2.638001484130437e-05 -7.2822857309139615e-06 0.0020215137590540158 -0.0036135870036257955 -0.003028831372819951 0.0067429124550599795 -0.002836857644794577 -0.0007831229731358746 0.0019296678688822159 -2.4272884796673067 -1.672637942323702 -0.28134427501033615 0.0010350495549412053 -0.0001794395137077204 0.00616922543312967 -23.37528151811967 -16.209522303809184 -2.1751707016850315 0.011317367155346102 -0.00016646073828829262 -0.9588807264911097 -1.40292044103656 2.1888893286334437 -2.353994985620016 -1.5608122984515589 0.6136734485626221 0.0 0.0 -0.0 -0.00020983981085009873 0.00024849368492141366 0.0 -0.4067409038543701 -1.8354874849319458 -1.1889511346817017 -0.4496539235115051 -0.002614507218822837 0.12445932626724243 -0.36501146886745106 0.29001605871931946 0.050010888750160104 3.1400481405543736 -6.728082562573554e-05 -9.198948088363036e-05 -8.204694647530797e-05 7.164165825596318e-06 2.0926463702913197e-05 2.8495134863560875e-05 0.0003239343031959168 1.2064703939243576e-06 0.09589944571145392 0.3692156933263252 -0.066495480273327 -0.0033316455480010996 0.02041151996833354 0.002218496645845493 -0.36499857968311056 0.290000549571089 0.049982790690350165 3.1399872713919157 -3.564181668020255e-05 -3.0873011920942404e-05 -1.6110355566162886e-06 -6.280553492173514e-07 1.938714126258143e-05 1.4456803689481124e-05 -2.213223717322915e-05 2.559192752841814e-05 -0.038307227194309235 0.2106897532939911 -9.27034854888916 0.573333811394813 0.03240225742875768 -9.364376319394239 0.0036230167559646613 0.019217148483011568 -0.0018565617518771136 -0.365 0.29 0.05 3.1400000000003274 -4.182523777896853e-14 1.8425963013474134e-14 16799.000321149826
13887.457999999999 -0.9588858228425119 -1.4028832203828614 2.1889170582452095 -2.3539877254111206 -1.5608095707421086 0.6136477044348174 3.434449195741556e-05 -6.139288051371458e-05 -5.1458493899846e-05 0.0001145587354152351 -4.8196770684493434e-05 -1.33048592844746e-05 0.0012527176469490087 -0.0022393330050274364 -0.0018769543053132054 0.004178562583501133 -0.0017579771429687696 -0.0004852928335852269 0.0027684827947185363 -2.4290853998165685 -1.6736805725952182 -0.28044264053538137 0.0006943896095698223 -0.0003017386807677947 0.0038229657103223975 -23.369905563001474 -16.20568244388906 -2.1755223745884944 0.011462718099852696 -0.00010315392073962462 -0.9588683287249964 -1.4028844398311158 2.188877884541647 -2.353983064691061 -1.5608122984515589 0.6136493682861328 0.0 0.0 -0.0 -0.00017000771185848862 0.00021191911946516484 0.0 -0.41911399364471436 -1.8363053798675537 -1.1847224235534668 -0.4612196087837219 0.0035269628278911114 0.1341356486082077 -0.3650145058370092 0.29001071678360896 0.04999791093711828 3.1400182848647264 -1.0136551754172225e-05 -5.9102281533842054e-05 -6.866149186662347e-05 4.262539749004823e-06 1.6955504990181862e-05 1.6981846311605166e-05 0.0002711067831938511 9.402177033017936e-07 -0.08378706898121381 0.1633496565743412 -0.034983094921024444 0.004081793214056089 0.011794800035720485 0.0005216801169309149 -0.364998604310217 0.29000053996978686 0.04998308705531218 3.1399874924002447 -3.502803686206279e-05 -3.0341352806197735e-05 -2.94334698742173e-06 -1.1475462683638605e-06 3.542074988551841e-05 2.6412865316476544e-05 -4.04359886495741e-05 4.6756924213160075e-05 0.07661445438861847 0.1149216815829277 -9.232041358947754 0.573333811394813 0.03240225742875768 -9.364376319394239 0.0036230167559646613 0.019217148483011568 -0.0018565617518771136 -0.365 0.29 0.05 3.1400000000003274 -4.182523777896853e-14 1.8425963013474134e-14 16799.000321149826
13887.467999999999 -0.9588854237621591 -1.402883933765498 2.188916460300735 -2.3539863942446404 -1.5608101307845352 0.6136475498336704 4.27326186290204e-05 -7.638751223120553e-05 -6.402659047285579e-05 0.00014253845539950093 -5.9968052055355746e-05 -1.6554322344702953e-05 0.0005782944260124268 -0.001033763278979194 -0.0008664738682107043 0.0019289855242021758 -0.000811535184608303 -0.0002240238551332041 0.0031405491529979735 -2.429877031036843 -1.6742273866550974 -0.27997852532575945 0.0005271242651963009 -0.00036494845153041525 0.0017648250586877674 -23.365323064361352 -16.203459909499358 -2.17588440006331 0.011668489148974873 -4.7618547056929925e-05 -0.9588807264911097 -1.4029323619655152 2.188877884541647 -2.3539349041380824 -1.560824219380514 0.6136612892150879 0.0 0.0 -0.0 -0.00014299334725365043 0.0001847315434133634 0.0 -0.4389892816543579 -1.8303380012512207 -1.1910454034805298 -0.4586825966835022 -0.006809238810092211 0.12541675567626953 -0.3650044823075431 0.29001146259168403 0.05001455176396291 3.140024994855512 -4.9024912073156696e-05 -4.350198176397083e-05 -5.9090903359053704e-05 2.6422851025183143e-06 1.4262468542426422e-05 1.0551150842914102e-05 0.0002333306413010436 7.724847588781411e-07 -0.08937931214693123 0.05198614213443067 0.16309176597693384 0.011538657699250625 0.008198571280897116 -0.00887348400261336 -0.3649986385115866 0.290000526635075 0.04998349864280649 3.1399877993320287 -3.4175631809656815e-05 -2.960299454695121e-05 -3.6621944812827168e-06 -1.4278766205606973e-06 4.407192942348694e-05 3.2863794387848396e-05 -5.0311814113271256e-05 5.817654860546494e-05 -0.07661445438861847 0.07661445438861847 -9.232041358947754 0.573333811394813 0.03240225742875768 -9.364376319394239 0.0036230167559646613 0.019217148483011568 -0.0018565617518771136 -0.365 0.29 0.05 3.1400000000003274 -4.182523777896853e-14 1.8425963013474134e-14 16799.000321149826
13887.478 -0.958884977797462 -1.4028847309586894 2.1889157921081406 -2.3539849066887446 -1.5608107566209704 0.6136473770701096 4.512954333949013e-05 -8.067221335850116e-05 -6.761799664952918e-05 0.0001505337239195188 -6.333172131840265e-05 -1.748286328121965e-05 3.2473571609514806e-05 -5.80397960803225e-05 -4.866332226072245e-05 0.00010831836050329002 -4.557156740858659e-05 -1.2580217534363669e-05 0.003137339390631029 -2.4299292962241603 -1.6741494633017147 -0.2798643641045378 0.0004885186646778554 -0.000379234784173447 9.910106762667181e-05 -23.362369425701146 -16.200584286353447 -2.176129997460118 0.01179805810331232 -2.674052926860401e-06 -0.9588807264911097 -1.4029084008983155 2.18886644044985 -2.3539473019041957 -1.5608122984515589 0.6136493682861328 0.0 0.0 -0.0 -0.00014806509716436267 0.00016372828395105898 0.0 -0.4356379508972168 -1.7969272136688232 -1.2082440853118896 -0.4605814814567566 -0.007155473344027996 0.12524327635765076 -0.3650107214054355 0.29001504425827235 0.05000937890454138 3.1400180135382785 -3.012105013311223e-05 -5.875186543016364e-05 -5.549509463119373e-05 6.744832731485664e-06 1.4761368394673567e-05 2.6792806816205314e-05 0.0002190783623880051 8.775950782150408e-07 0.37001922752117267 0.5355968564780683 -0.06399292390842576 -0.004601386258700072 0.02127021466152767 0.001978951823593232 -0.36499867673076786 0.290000511733294 0.04998395858527266 3.1399881423218954 -3.322308588254902e-05 -2.877789432078316e-05 -3.867591891023612e-06 -1.5080078788852233e-06 4.654405344164537e-05 3.4707167595012865e-05 -5.3133847031228564e-05 6.143973130331083e-05 -0.019153613597154617 0.2106897532939911 -9.21288776397705 0.573333811394813 0.03240225742875768 -9.364376319394239 0.0036230167559646613 0.019217148483011568 -0.0018565617518771136 -0.365 0.29 0.05 3.1400000000003274 -4.182523777896853e-14 1.8425963013474134e-14 16799.000321149826
13887.488 -0.9588845366552912 -1.4028855195300913 2.1889151311403 -2.3539834352190256 -1.5608113756898696 0.6136472061747202 4.2918624583940534e-05 -7.6719873127645e-05 -6.430546299328118e-05 0.00014315895317236086 -6.022908063862349e-05 -1.6626377463296815e-05 -0.0003709715982180839 0.0006631467859286033 0.0005558175923958686 -0.0012374051929775476 0.000520596167952192 0.00014371187651018857 0.0028589911331814936 -2.42936946402631 -1.6737544849671766 -0.2800164469329806 0.0005497766616392083 -0.0003563586007136434 -0.0011321197706153593 -23.360257865174468 -16.198769985307425 -2.176263677520999 0.011876035754255838 3.0547418774936695e-05 -0.9588683287249964 -1.4028963607600708 2.188877884541647 -2.3539592228331507 -1.560824219380514 0.6136612892150879 0.0 0.0 -0.0 -0.00013021221093367785 0.0001470109127694741 0.0 -0.3840055465698242 -1.8357014656066895 -1.186290979385376 -0.4388047158718109 -0.004961216822266579 0.1219613254070282 -0.3650093205282451 0.2900086310494902 0.050000869099596584 3.140015412014626 -2.917485566112621e-05 -3.2992916399431245e-05 -4.9428592437192506e-05 5.491129815275895e-06 1.2981527316361124e-05 2.1818439186870736e-05 0.00019513573853951395 7.615455484008161e-07 0.1038131542797525 0.5149037340878787 -0.06066231180624893 -0.008312634199405745 0.017184285204091144 0.004972502167149134 -0.3649987145365171 0.290000496992505 0.04998441355430497 3.139988481602286 -3.228083998866805e-05 -2.7961715944618856e-05 -3.6781136201395185e-06 -1.4341358790422402e-06 4.4263847443424814e-05 3.300685341332855e-05 -5.053080107484113e-05 5.842977864582916e-05 -0.019153613597154617 0.13407529890537262 -9.327810287475586 0.573333811394813 0.03240225742875768 -9.364376319394239 0.0007801532151962065 0.012268161554320353 -0.0060426938262118255 -0.365 0.29 0.05 3.1400000000003274 -4.182523777896853e-14 1.8425963013474134e-14 16799.163681406826
13887.498 -0.9588841736989133 -1.402885865625625 2.1889147459721396 -2.353982683312566 -1.5608119370547442 0.6136470208633575 2.4153706341685795e-05 6.972573477930892e-05 2.298300295350013e-05 -9.053861943006096e-05 -5.3296171091632424e-05 -2.6030347866774357e-05 -0.0050414281350663614 0.04623572658668529 0.0270629381398102 -0.07322969249656808 0.0006784451147545667 -0.0035442022213727498 -0.0006868261537559385 -2.3054919169886925 -1.6135036089614423 -0.28561884739983073 0.0006378452544739899 -0.0006615980597512222 -0.02322510159653983 -23.20745801913604 -16.11597819178221 -2.186335473468921 0.011674413868360307 -0.0007505190386440071 -0.9588807264911097 -1.4028844398311158 2.18886644044985 -2.353983064691061 -1.560824219380514 0.6136374473571777 0.0 0.0 -0.0 -0.0001162016560556367 0.000133392823045142 0.0 -0.45088231563568115 -1.7974748611450195 -1.2092468738555908 -0.4547021985054016 -0.01718292571604252 0.13125987350940704 -0.36501195222376237 0.290021947012048 0.05000221467984742 3.1400345086721075 -1.0815453725918052e-05 -5.417204928325848e-05 -4.456437798358233e-05 4.5805529901707345e-06 1.158602557318779e-05 1.8206120634320494e-05 0.0001759379050600199 6.764876103786427e-07 0.2222974113484912 0.432897100572907 -0.0936520120693803 -0.00170921296602455 0.017135569794201517 -0.0018345213537645508 -0.36499873398909244 0.29000049024875724 0.04998463839210751 3.1399887883138615 -3.142859055441437e-05 -2.722167278098221e-05 2.2761094363868785e-06 1.201161687917163e-06 -3.0846056459358e-05 2.8855404206287935e-05 -4.470075768282421e-05 5.1188719102186026e-05 0.019153613597154617 0.19153612852096558 -9.232041358947754 0.573333811394813 0.03240225742875768 -9.364376319394239 -0.004601386258700072 0.02127021466152767 0.001978951823593232 -0.365 0.29 0.05 3.1400000000003274 -4.182523777896853e-14 1.8425963013474134e-14 16799.167677006826
13887.508 -0.9588844866895894 -1.4028798695298281 2.1889180596611806 -2.353991962030168 -1.560812434588776 0.6136463369658749 -7.7166917379182e-05 0.0010390854590139455 0.0005861882020381921 -0.0016213917334111905 -4.7514213097728624e-05 -0.0001040338159364676 -0.012412409346573838 0.11845772602336879 0.06848339268739068 -0.18673786522738212 0.0005607138950924906 -0.009687799333302216 -0.011257077079945553 -2.20574148796694 -1.5650671303114667 -0.31607051385613166 0.000670500781378037 -0.0025210764337683872 -0.0582501775980664 -22.964739754428525 -15.986920949301515 -2.2021973704163806 0.01119216114200928 -0.0020517585859496762 -0.9588683287249964 -1.4028725040009995 2.188901726399557 -2.3540073833861292 -1.5607879797564905 0.6136374473571777 0.0 2.997286901518237e-05 -0.0 -0.00021554544218815863 0.00012208468979224563 0.0 -0.4761165380477905 -1.5074121952056885 -1.0129661560058594 -0.49050870537757874 -0.0022592213936150074 0.13161014020442963 -0.36501502005254594 0.29000074033768924 0.04998602434618399 3.1399948990141104 8.805840857769861e-06 -7.99982137458051e-05 -5.4843078828737486e-05 2.396260284726254e-05 8.053368119416337e-06 8.141498116157812e-05 0.00020665510396451428 1.6298248257439814e-06 -0.11209183877418834 0.337489714623526 0.09859673219996651 0.0011476374094512066 0.01135487508166584 -0.0027538370678315987 -0.364998498098574 0.29000059884111845 0.04998163200825809 3.1399890441460014 -3.071066753114147e-05 -2.6566914397130987e-05 4.122332384778867e-05 1.91411294520853e-05 -0.0005241352473489504 2.327087342156333e-05 -3.9722867672618064e-05 4.188963779772253e-05 0.038307227194309235 0.13407528400421143 -9.27034854888916 0.573333811394813 0.03240225742875768 -9.364376319394239 -0.008312634199405745 0.017184285204091144 0.004972502167149134 -0.365 0.29 0.05 3.1400000000003274 -4.182523777896853e-14 1.8425963013474134e-14 16799.177599469826
13887.518 -0.958886094315055 -1.402861572449659 2.1889284663958506 -2.354020614278266 -1.5608128761677005 0.613644639798018 -0.0002203568645245546 0.002390505744545502 0.0013619656870295482 -0.003746443517688263 -4.196080201987763e-05 -0.00021679598153956462 -0.015455633278871339 0.14506274081638182 0.08295665628921256 -0.2277985287428841 0.0005389613073614186 -0.012256721643733037 -0.022576177119241453 -2.0911365823951313 -1.5114756693898934 -0.356243561452271 0.0007379911625932849 -0.005035515401858561 -0.072193102615976 -22.877166504488976 -15.942036046580096 -2.2080584088296655 0.0110071381866682 -0.002595874929526995 -0.9588564077960413 -1.4029078942588349 2.1888893286334437 -2.353996892968649 -1.5608122984515589 0.6136133670806885 0.0 0.0016021745977923274 -0.0 -0.004758134949952364 0.0001125428025261499 0.0 -0.4710666239261627 -1.4028342962265015 -0.952721118927002 -0.5104273557662964 -0.008516591042280197 0.10932238399982452 -0.36501799312020455 0.2900064165252263 0.05000546734870398 3.140039431430244 6.526543355316122e-05 -8.244043663221578e-05 -0.0006167023444327716 0.000817770675808405 -0.00024351579044535097 0.0025144479079561776 0.0019103350590425757 4.410131381165544e-05 0.28487707016694247 0.17340553023812047 0.02381240119040523 0.005597779330267898 0.017097158549127675 0.0006608308905569438 -0.36499777051649773 0.29000095329798764 0.04997238097862847 3.1399892401402703 -3.015571591412677e-05 -2.5990269949992783e-05 9.508004169964431e-05 4.738991250328025e-05 -0.001209207789836277 1.712591245026719e-05 -3.468769307655645e-05 3.0939882235116325e-05 0.1149216815829277 0.05746084079146385 -9.21288776397705 0.573333811394813 0.03240225742875768 -9.364376319394239 -0.00170921296602455 0.017135569794201517 -0.0018345213537645508 -0.365 0.29 0.05 3.1400000000003274 -4.182523777896853e-14 1.8425963013474134e-14 16799.187975590827
13887.528 -0.9588892721173501 -1.4028285339369742 2.1889472881512324 -2.3540724010897627 -1.5608132652327864 0.613641693901199 -0.0003838627668040081 0.003928390031263898 0.002236520605242766 -0.006156727488823112 -3.6931734287073835e-05 -0.00034750354063428575 -0.016572226592903583 0.1581826938008566 0.08948135706843274 -0.24746592354718544 0.0004887894116123448 -0.013278362335111815 -0.03447910299900658 -1.9661147601722904 -1.4539830254462607 -0.40131552542794463 0.000810579199203541 -0.007896306491204569 -0.07805888492358565 -22.832819372175017 -15.921015794992858 -2.2109080637249283 0.010927903606972874 -0.0028122846170051475 -0.9588564077960413 -1.4028592568686982 2.1889146010028284 -2.3541060886778773 -1.5607999006854456 0.6136255264282227 0.0 0.004065569490194321 0.0016338648274540901 -0.009925037622451782 0.00010438401659484953 0.0 -0.5322197675704956 -1.3172330856323242 -0.9868761301040649 -0.48994216322898865 -0.02088337391614914 0.10649880766868591 -0.36502567003161274 0.2900116819936207 0.0499850628037066 3.1400611011577477 4.773030292500887e-05 -0.0001303126128966477 -0.000712486902332543 0.0009481565407710918 -0.0014464199727027495 0.0033915915096294235 0.0025221671121156974 9.111071269620823e-05 0.3238989367952743 0.571692219496426 -0.0891397450418382 -0.00570983473370279 0.019456032210228673 0.004270612700937386 -0.3649964589578577 0.2900016308431988 0.04995567047348104 3.1399893749847725 -2.9772329339760835e-05 -2.5491073578343356e-05 0.00015548054348295777 8.180288348030791e-05 -0.001986459153369362 1.1110016761357991e-05 -2.984235968450504e-05 2.0247888405004765e-05 0.038307227194309235 0.1149216815829277 -9.078812599182129 0.573333811394813 0.03240225742875768 -9.364376319394239 0.0011476374094512066 0.01135487508166584 -0.0027538370678315987 -0.365 0.29 0.05 3.1400000000003274 -4.182523777896853e-14 1.8425963013474134e-14 16799.198245433825
13887.537999999999 -0.9588940893939206 -1.4027796978541192 2.1889750275849393 -2.354148884436242 -1.5608136065769713 0.6136374341451569 -0.0005458590724873155 0.005518449052600071 0.003130617906385473 -0.008639201798023008 -3.239636174116874e-05 -0.00047741268915257054 -0.015844145254573228 0.15804711918865344 0.08884665052066865 -0.24673298563060442 0.00040698106062997397 -0.012708016523421684 -0.045475574339220566 -1.8415221777627746 -1.3973532067777055 -0.44734133366972323 0.0008862287540594662 -0.010696001941014003 -0.07603453310716875 -22.834834134521873 -15.921259873763207 -2.210793062668354 0.01093489005668887 -0.0026914917975606667 -0.9588325659381312 -1.4028101873448868 2.188939396535055 -2.354178567925924 -1.5608122984515589 0.6136374473571777 -5.835832794787166e-08 0.007305474486202002 0.003903913078829646 -0.010611418634653091 9.732939361128956e-05 0.0 -0.5558164715766907 -1.3180570602416992 -0.9327325820922852 -0.5049028396606445 0.00028319121338427067 0.10605385899543762 -0.36502988170593226 0.2900044388367821 0.0499609883983228 3.140067063065237 6.753856458718664e-05 -0.00011319145121871163 9.239626361576717e-05 -0.00019469803992544962 -0.0036813635814918573 -0.0005514334758880907 -0.00025625457345019963 9.745791686408548e-05 0.07594798996780265 0.30178268876237535 0.14050793852058627 -7.989052224576178e-05 0.016413076347809273 0.003677848860326806 -0.364994548416579 0.2900026629952489 0.04993099468787765 3.139989453092349 -2.9544332198600822e-05 -2.506813204233334e-05 0.00021440260777913706 0.0001172088356275126 -0.002787171316100293 5.7175679434808085e-06 -2.5066706901253964e-05 1.0943579212452327e-05 -0.038307227194309235 0.17238251864910126 -9.040505409240723 0.573333811394813 0.03240225742875768 -9.364376319394239 0.005597779330267898 0.017097158549127675 0.0006608308905569438 -0.365 0.29 0.05 3.1400000000003274 -4.182523777896853e-14 1.8425963013474134e-14 16799.207837162827
13887.547999999999 -0.9589004601243385 -1.4027152998515957 2.189011522821909 -2.354249669545709 -1.5608139102583465 0.6136319280536906 -0.0006962516756513481 0.007037977376937103 0.003986813876235674 -0.011013354906694535 -2.9218795408962576e-05 -0.0005981829825144674 -0.01460539425890417 0.14693489613915034 0.08290297716317951 -0.22968308852178154 0.0002559489724607289 -0.011764223423638143 -0.05529113441711624 -1.7260922531785161 -1.3447888570954003 -0.4727634730585333 0.0009454987498371252 -0.013287369888568601 -0.07028673681573333 -22.874022367680965 -15.93834312846619 -2.2083632445983534 0.01098805242556835 -0.0024916137250086076 -0.9588926474200647 -1.4027493608048935 2.188999954854147 -2.3542987308897914 -1.5608122984515589 0.6136374473571777 -2.536663003010024e-17 0.010100594721734524 0.005193721037358046 -0.012526058591902256 9.11669121705927e-05 -8.832104492206838e-10 -0.6246214509010315 -1.3094826936721802 -0.9160689115524292 -0.5175269842147827 -0.011807666160166264 0.09242824465036392 -0.36500758576588277 0.2900192454283401 0.049922942752392896 3.1400660110693757 -2.5112413618803622e-05 -0.00011226878770605311 0.0003886311269267033 -0.000617674588399929 -0.0052261775545658605 -0.002325028678233177 -0.0015071739760361882 0.0001157712837529594 0.04243750791604564 0.3338659955488583 0.2504469326452698 0.009255096217961055 0.01873263533932787 -0.0048198731461475625 -0.3649920677363085 0.2900040290033333 0.04989848128167404 3.139989482687287 -2.9448286900199297e-05 -2.4710473397615327e-05 0.000270059681557596 0.00014903907108292802 -0.0035527786117338805 1.2564117887048792e-06 -2.1428254668744347e-05 3.1106602424476985e-06 0.019153613597154617 0.09576806426048279 -9.002198219299316 0.573333811394813 0.03240225742875768 -9.364376319394239 -0.00570983473370279 0.019456032210228673 0.004270612700937386 -0.365 0.29 0.05 3.1400000000003274 -4.182523777896853e-14 1.8425963013474134e-14 16799.217938816826
13887.557999999999 -0.9589082282033683 -1.4026369118435689 2.1890559142182413 -2.3543723260845013 -1.5608141900716852 0.6136252958127777 -0.0008216738977675356 0.008281612122854245 0.004689313348148844 -0.01295819023700449 -2.7104404362650626e-05 -0.0006992789568086623 -0.009094288223154834 0.08936460874187091 0.0504727641921221 -0.1397547543877664 0.0002556495237726608 -0.007237936187176608 -0.061222910772821194 -1.647465783358135 -1.3100477992078043 -0.47160113338695037 0.0010271848375763696 -0.0153538127633288 -0.04331856261578513 -23.06852174016246 -16.037254616705862 -2.1957172309613995 0.011348730081913743 -0.0015329432247499347 -0.9588926474200647 -1.4026287508061905 2.189035717641012 -2.3544303379454554 -1.5607999006854456 0.6136131882667542 -8.688225534569938e-06 0.012821776792407036 0.0063707358203828335 -0.011975403875112534 8.573938248446211e-05 -0.0005160837899893522 -0.5948354601860046 -1.336322546005249 -0.9239487648010254 -0.5351302623748779 -0.011228795163333416 0.08092846721410751 -0.36501068910228146 0.29001791793156595 0.04986863471088601 3.1400385175179633 1.488175639142214e-05 -0.00010604595244998232 0.0010091747732930386 -0.0014910697673522135 -0.0069405106801042424 -0.005962138494980405 -0.00406824753968204 0.0006191783683161077 0.18326162810995733 0.0767315912389564 0.11090143706046138 0.010928627122660612 0.0194239206273774 -0.009839290854827806 -0.3649890668624309 0.2900056892320278 0.049858915851984376 3.1399894740651413 -2.9462847385962286e-05 -2.4398424753654794e-05 0.0003168252340840101 0.00017538701624888296 -0.004179772094740582 -2.1299293164191748e-06 -1.884542260499152e-05 -3.3677621752291765e-06 0.019153613597154617 0.13407529890537262 -9.059659004211426 0.573333811394813 0.03240225742875768 -9.364376319394239 -7.989052224576178e-05 0.016413076347809273 0.003677848860326806 -0.365 0.29 0.05 3.1400000000003274 -4.182523777896853e-14 1.8425963013474134e-14 16799.233527660825
13887.568 -0.9589167295843488 -1.4025513396217386 2.189104361123318 -2.3545062165502557 -1.560814441852866 0.6136180868493906 -0.0008626256704542791 0.00867765424016716 0.004912438418468225 -0.01357723576061277 -2.3905131957900748e-05 -0.0007299483077602351 -0.0029876566542963445 0.02920305217468666 0.01642130319323698 -0.04563035666782511 0.0002886686853997844 -0.002168591989426538 -0.061092839708323965 -1.6362906968049846 -1.3061034566470695 -0.4700354114400023 0.0011264960495548687 -0.015879034979856814 -0.014178724136574786 -23.272644277791816 -16.140450529046145 -2.182484727904172 0.01170745540874454 -0.00045923979479862965 -0.9588683287249964 -1.402496652012207 2.189143482838766 -2.3545381031432093 -1.5607999006854456 0.6136611104011536 -0.0003721929679159075 0.013737139292061329 0.00626749824732542 -0.011976308189332485 8.092130883596838e-05 -0.00046756851952522993 -0.6077809929847717 -1.523476481437683 -0.9214481711387634 -0.5415245890617371 -0.006646809168159962 0.07957624644041061 -0.36499199337870014 0.2899722424579417 0.049779732260242515 3.13993038103771 -2.0758994876734502e-05 1.3177159483935214e-05 0.001143754969302761 -0.0013985898263385948 -0.007310090616181651 -0.00662341629368836 -0.0045382248722862254 0.00020806886201963964 0.22652333383604634 0.3949585139969139 -0.10167282841076433 -0.0026482528411171475 0.021555303853437312 0.0016470391340983816 -0.3649857957230593 0.2900075013248015 0.049815730267570774 3.139989438123767 -2.956141759630354e-05 -2.413179373082354e-05 0.00033159438933507725 0.00018362140485957417 -0.004379098791629662 -4.431156461570672e-06 -1.5782209018083277e-05 -7.976537620426292e-06 -0.019153613597154617 0.09576806426048279 -9.155426979064941 0.573333811394813 0.03240225742875768 -9.364376319394239 -7.989052224576178e-05 0.016413076347809273 0.003677848860326806 -0.365 0.29 0.05 3.1400000000003274 -4.182523777896853e-14 1.8425963013474134e-14 16799.233527660825
13887.578 -0.9589255092014 -1.4024630182243518 2.1891543531894864 -2.354644402312836 -1.560814667305916 0.613610676389527 -0.0008819292368460907 0.008873472595111731 0.005022168137042176 -0.013883012763152293 -2.1640437161142135e-05 -0.0007432886304472076 0.0006915293464526684 -0.006584331949888167 -0.0038292554425112257 0.010356369610331484 0.0002517503137067223 0.0008422778742245285 -0.06065294361090368 -1.633017554748589 -1.3049983469227924 -0.46906791605767933 0.001189484023028091 -0.01608532722639497 0.0032822706611288686 -23.39670188907902 -16.199659029050995 -2.174453910023422 0.011905084833555492 0.0001784616977047811 -0.9588564077960413 -1.402365044956543 2.189154926930563 -2.3546463451781214 -1.560824219380514 0.6136132478713989 -0.0003431059594731778 0.013728021644055843 0.006847976241260767 -0.012803993187844753 5.66017765990523e-09 -0.00039656538865529 -0.6100460886955261 -1.5294036865234375 -0.9206967353820801 -0.5475171804428101 -0.010751217603683472 0.05514044687151909 -0.36499427776147053 0.289976614650326 0.049727326619695256 3.1399158072689413 7.485237874973666e-05 7.556482328949808e-05 0.001208653135976341 -0.0014787233294563404 -0.00744200040361971 -0.006367231403910158 -0.0044570074494611695 0.0001732044300357021 0.10407498650481428 0.4036605479464116 -0.07342693973294147 -0.005558635606333776 0.013445529189291048 -0.005233967577591656 -0.36498242438893425 0.290009367347525 0.049771162931899815 3.1399893852776537 -2.9718647971183568e-05 -2.3905557294124743e-05 0.0003385299250255336 0.00018717416478744264 -0.004477346306702072 -5.731164276742922e-06 -1.3538272520763429e-05 -1.113918107385997e-05 -0.05746084079146385 0.09576806426048279 -9.21288776397705 0.573333811394813 0.03240225742875768 -9.364376319394239 -7.989052224576178e-05 0.016413076347809273 0.003677848860326806 -0.365 0.29 0.05 3.1400000000003274 -4.182523777896853e-14 1.8425963013474134e-14 16799.233527660825
13887.588 -0.9589340616496767 -1.4023769490634725 2.1892030609279662 -2.354779059194751 -1.560814865048254 0.6136034817865799 -0.0008278474635712007 0.008332395008016665 0.00471508936569419 -0.013036018813999614 -1.8387972016325792e-05 -0.0006955807987171897 0.008178932135338712 -0.08203006434026605 -0.04649897127384506 0.12837876465754405 0.00036523256241594027 0.00707502644303748 -0.05324958141095515 -1.7003104605174748 -1.3373132358443214 -0.46669470983618516 0.0013029591713121563 -0.01487996190409977 0.03932764793693087 -23.65145908253169 -16.329856513110723 -2.1577898652433456 0.01236612258215248 0.001498582091742621 -0.9589045683490198 -1.402174101477005 2.1892269293414515 -2.3547660313048304 -1.5608122984515589 0.6136132478713989 -0.00048253891873173416 0.012066533789038658 0.005851454567164183 -0.012881328351795673 6.716738337666107e-15 -0.0003755833313334733 -0.5947073698043823 -1.5957658290863037 -0.9757102727890015 -0.5367733240127563 -0.013435818254947662 0.04657583683729172 -0.3649659115348858 0.2899681827511753 0.049626763131605856 3.1397916249986344 9.219945812152403e-07 0.00018929838217842326 0.0008260850453339311 -0.0008262732121497443 -0.006316039178516466 -0.00412926971917297 -0.0028842604603377987 1.3203824080322633e-05 0.23595947215225366 0.3242297577444841 -0.02999758490713817 0.0040616596235731 0.017462442751626485 -0.0033895118398754188 -0.36497914347748905 0.29001117981133695 0.04972773714436146 3.1399893246595485 -2.9909069946077807e-05 -2.37174488546342e-05 0.00031751398876802786 0.00017519609139893271 -0.004203869132132947 -6.182744880557439e-06 -1.0897825125281077e-05 -1.254960324909547e-05 0.019153613597154617 0.05746084079146385 -9.366117477416992 0.573333811394813 0.03240225742875768 -9.364376319394239 -7.989052224576178e-05 0.016413076347809273 0.003677848860326806 -0.365 0.29 0.05 3.1400000000003274 -4.182523777896853e-14 1.8425963013474134e-14 16799.233527660825
13887.598 -0.9589417011192527 -1.4023000417189966 2.1892465766875313 -2.3548993784021377 -1.5608150252629684 0.6135970733557228 -0.0007153307216246625 0.007202293490961911 0.004074935641144555 -0.011267625296926632 -1.4383381086997056e-05 -0.0005993774437605075 0.012954464874037619 -0.13018378988594037 -0.07372392368099057 0.20370236987821144 0.0004163880595875469 0.011026874199404624 -0.043132522672098106 -1.8050435304962165 -1.3860551308655842 -0.46488580539976654 0.0014113818124215976 -0.01268634614784686 0.062316367835736824 -23.81611996876114 -16.41269693542808 -2.1472219876241847 0.01269281519462518 0.0023355931927503924 -0.9588926474200647 -1.4020674389651795 2.1892855803119105 -2.3548857174315394 -1.5607999006854456 0.6136013269424438 -0.0006268923752941191 0.009108497761189938 0.004467891529202461 -0.012185819447040558 7.970521743279175e-21 -0.000340512691764161 -0.6037091612815857 -1.651633858680725 -0.9730786085128784 -0.5094817280769348 -0.0008641474414616823 0.04702122136950493 -0.3649645911107622 0.28995135563928953 0.049568911211856054 3.139747079162909 4.000924765564228e-05 0.0002144175435982358 0.00035521322684211286 -4.22089497759165e-05 -0.004542039299238515 -0.0011451971217514996 -0.0007892032995335245 -0.00017346320706493958 0.06970036113099036 0.21289734368049307 -0.14606229990431874 0.0006507035994901966 0.012675995650037068 -1.1247984919481347e-05 -0.36497621492807786 0.29001279443429495 0.04968893788780562 3.1399892636624727 -3.0107172209597468e-05 -2.3573682224647366e-05 0.00027415565601107434 0.00015099748462358997 -0.0036333496647944405 -5.97015118480876e-06 -8.001411635468669e-06 -1.248071853393205e-05 0.05746084079146385 0.1149216815829277 -9.308656692504883 0.573333811394813 0.03240225742875768 -9.364376319394239 -7.989052224576178e-05 0.016413076347809273 0.003677848860326806 -0.365 0.29 0.05 3.1400000000003274 -4.182523777896853e-14 1.8425963013474134e-14 16799.233527660825
13887.608 -0.9589479985043816 -1.402236623823292 2.189282453942596 -2.3549985906271775 -1.5608151438418858 0.6135918056507004 -0.0005698264412171663 0.005739320200853649 0.003246651320241028 -0.008978578864397365 -1.0179086681401196e-05 -0.00047604605742981214 0.015319640711997096 -0.15407170857661967 -0.08721891739815746 0.24106292831804765 0.0004173015448749595 0.01295711485349571 -0.03191336978284571 -1.9277800210971563 -1.4425874577928204 -0.44470937528592785 0.0014991415162232732 -0.009960422235303022 0.07370433868593466 -23.89744455738152 -16.45370766671096 -2.142061701300263 0.012835061871933773 0.0027444164098151327 -0.9588683287249964 -1.40203249574218 2.189298454915182 -2.3550168476500453 -1.560836140309469 0.6135894060134888 -0.0005663050687871873 0.006079365033656359 0.0029417516198009253 -0.00975393783301115 9.458341334870846e-27 -0.0003253835311625153 -0.5212461948394775 -1.7452607154846191 -0.9850308299064636 -0.47807222604751587 0.0006229446735233068 0.04685908555984497 -0.36497715339563314 0.28996598678119606 0.04956146109751172 3.1398360433009658 9.898310967835434e-05 0.000185614763633505 3.041263896884815e-05 0.0003777920409798307 -0.002855391321554457 0.0005937974017313575 0.00042940074176134633 -0.00015085156958195747 0.11621651181961347 0.2519409418860788 -0.2092399734079578 0.002577399782386071 0.01362971087174229 -0.00613870954100361 -0.3649738029021788 0.2900141222564359 0.049656947054922296 3.1399892077622744 -3.0293482387907034e-05 -2.3475087391622877e-05 0.00021817183695414886 0.00012002085330745538 -0.0028950447339303642 -5.287584460298365e-06 -5.173704339888138e-06 -1.1332072324337023e-05 0.0 0.13407529890537262 -9.346963882446289 0.573333811394813 0.03240225742875768 -9.364376319394239 -7.989052224576178e-05 0.016413076347809273 0.003677848860326806 -0.365 0.29 0.05 3.1400000000003274 -4.182523777896853e-14 1.8425963013474134e-14 16799.233527660825
13887.617999999999 -0.958952756946065 -1.4021886847737273 2.1893095691390423 -2.3550735846330966 -1.560815221432712 0.6135878385300506 -0.00041291251453554637 0.004160749000994083 0.002353161564759745 -0.006508791035275296 -6.19808133009397e-06 -0.0003436547867215101 0.015707780928853055 -0.15804943990760378 -0.08945027296825003 0.2472756401852294 0.000381261987314474 0.013233886238528392 -0.020872395203483857 -2.052949728264165 -1.4997351007183704 -0.3987812471895564 0.0015648611793760434 -0.007083635303391908 0.07557561005734491 -23.910608721428623 -16.459098915482016 -2.141117126412664 0.012835934461663829 0.002803026551775193 -0.9588807264911097 -1.4019738894752045 2.1893094221698206 -2.355098863641256 -1.5608122984515589 0.6136132478713989 -0.000593257718719542 0.0024763334076851606 0.0012789793545380235 -0.0043726228177547455 1.1223887486616013e-32 -0.0002676412696018815 -0.5901659727096558 -1.7320539951324463 -1.0432902574539185 -0.4636007249355316 0.009478488937020302 0.05188868194818497 -0.3649833425844733 0.2899737709461515 0.049539285781754316 3.1398324421810195 4.323642474140695e-05 0.00014368207730450818 8.381294951924627e-05 0.00033355648192548003 -0.001153739331573948 0.0005025479829513437 0.0003586471247338151 -0.0002854067136013711 0.20935722292452158 0.17020547393813154 0.06513997370280324 0.010557428936966875 0.023409926151145403 -0.007315141389714439 -0.3649719826926948 0.29001512358778764 0.04963276685034368 3.1399891605366483 -3.0454745617472854e-05 -2.341828100809768e-05 0.00015783450380320261 8.681305486137076e-05 -0.0020985579843830313 -4.319792762412632e-06 -2.6456976985068906e-06 -9.491985963300514e-06 0.0 0.1149216815829277 -9.327810287475586 0.573333811394813 0.03240225742875768 -9.364376319394239 0.002577399782386071 0.01362971087174229 -0.00613870954100361 -0.365 0.29 0.05 3.1400000000003274 -4.182523777896853e-14 1.8425963013474134e-14 16799.293495507827
13887.627999999999 -0.9589560266396386 -1.4021556785350269 2.18932823073998 -2.3551252134101652 -1.5608152642078146 0.6135851243062254 -0.0002835419035670481 0.002876542092060226 0.001625522652980874 -0.004498776321941563 -3.511143137977911e-06 -0.00023513146534465606 0.007320114100095587 -0.06782661011306423 -0.03867485796593684 0.10639456114169832 6.41111466137545e-05 0.006051201020040864 -0.016147982141224773 -2.1243269679738317 -1.5302412175787858 -0.3640753495055492 0.001535806105127277 -0.004929305143211875 0.0340357354695721 -23.608730961894842 -16.301088880894607 -2.1609250873083705 0.012271251982706571 0.0012816577230562003 -0.9589045683490198 -1.4019744557193299 2.189345184956686 -2.35512175182485 -1.560836140309469 0.613637387752533 -0.0005021849065087736 0.0008733285940252244 0.0006334139034152031 -0.0016623612027615309 1.3318995782686698e-38 -0.0002502232091501355 -0.593384861946106 -1.8250303268432617 -1.0488747358322144 -0.47175222635269165 -0.013465897180140018 0.031298376619815826 -0.36496393336695093 0.28997517388394434 0.04952836250821069 3.1398361022479326 -3.175344116392122e-05 0.00018540453115153526 0.0001527885309611109 0.00017010482052093215 -0.00046347856020201924 0.00012643122679332954 9.102570109804067e-05 -0.00023690144644822623 0.01907429677918841 0.33039123960292244 0.10702506901822999 0.0032370009999964817 0.017684554036930485 -0.0037400618815501842 -0.3649707345142214 0.2900158104232119 0.049616121299563554 3.1399891238481232 -3.058257856506857e-05 -2.3395022839456497e-05 0.00010819013015691172 5.950158030927042e-05 -0.0014504212431992185 -3.2279811944853876e-06 -1.0542313038660215e-06 -7.101950171321423e-06 -0.019153613597154617 0.15322890877723694 -9.346963882446289 0.573333811394813 0.03240225742875768 -9.364376319394239 0.002577399782386071 0.01362971087174229 -0.00613870954100361 -0.365 0.29 0.05 3.1400000000003274 -4.182523777896853e-14 1.8425963013474134e-14 16799.293495507827
13887.637999999999 -0.958958844279044 -1.4021264472675625 2.1893447174506675 -2.3551708992361853 -1.5608153104078006 0.6135827762849377 -0.0002891900239614594 0.003045395809503521 0.0017155015193232382 -0.004757609816599304 -5.658316936900205e-06 -0.00024192982203249047 -0.001532828801775743 0.026670586147581332 0.014536384136842884 -0.04119178791439637 -0.0002467104163184075 -0.0015046924994877031 -0.02097940716629153 -2.0803631406275773 -1.50809350763448 -0.37155912984387524 0.0014237298868928698 -0.005284484479206707 -0.009656892607508172 -23.2936487342213 -16.134558947760013 -2.1815870623419293 0.011680730296468465 -0.0003187546882704017 -0.9589045683490198 -1.4019745898297806 2.1893327871905726 -2.3551346264281214 -1.5608599821673792 0.6136013865470886 -0.0004164786369074136 0.00048270352999679744 0.0004577134386636317 -0.0043143825605511665 1.5414283107572988e-44 -0.00023858249187469482 -0.6139225959777832 -1.751612663269043 -0.9764308929443359 -0.49277815222740173 -0.01368403434753418 0.018369702622294426 -0.3649647012958113 0.2899867017595598 0.04953435548377741 3.13987060477799 2.507476551133929e-05 0.0001930033733070424 -0.00033942709350654886 0.0007989425890981264 4.068245822853232e-05 0.0027584616171861197 0.0019428802837103242 -0.00013898086947462823 0.006439465866543722 0.19171635716837934 0.16680199388551056 0.004196489566029236 0.014018368250557316 -0.008724790048100388 -0.364969656476969 0.29001640060210265 0.049601391218043606 3.1399890981335803 -3.066118595892638e-05 -2.3365810578068948e-05 0.00011089218797552164 6.048975905803324e-05 -0.0015340144322700503 -2.1420219252669443e-06 -2.6013810204534345e-06 -3.5627159003270338e-06 0.038307227194309235 0.09576806426048279 -9.097966194152832 0.573333811394813 0.03240225742875768 -9.364376319394239 0.002577399782386071 0.01362971087174229 -0.00613870954100361 -0.365 0.29 0.05 3.1400000000003274 -4.182523777896853e-14 1.8425963013474134e-14 16799.293495507827
13887.648 -0.9589617394708725 -1.402095415384407 2.1893621728667543 -2.3552193537386117 -1.560815378237681 0.6135803427595414 -0.0002858865016058597 0.0030969522570323373 0.0017405464794390594 -0.0048342671719500685 -7.370975245953712e-06 -0.00024098974895338032 0.0014487596907697409 -0.007877779514053884 -0.004779227487539117 0.012638965668276825 -0.0001235356175133262 0.0010561621076599081 -0.019199029279877766 -2.08752348360188 -1.5125683999427384 -0.37202387443232987 0.0014227335258768829 -0.005193667383518019 0.005611903292946129 -23.408598316213084 -16.195933665843658 -2.174218419585104 0.011890385710534638 0.00022366324202241077 -0.9588926474200647 -1.4020225566676636 2.1893203894244593 -2.355170866052145 -1.5608122984515589 0.6136254668235779 -0.0004487356054596603 0.000333576463162899 0.00043940223986282945 -0.005304659716784954 0.0 -0.000223951690713875 -0.5675684213638306 -1.7299423217773438 -0.9702939391136169 -0.4616369605064392 0.0015138499438762665 0.01713828183710575 -0.36499021241937823 0.2899927338268887 0.04956407842905447 3.1399221904134014 6.357206554621794e-06 4.464541543105573e-05 -0.0004902984234745144 0.0010369284527593507 0.00021272566540262008 0.003705262482851048 0.0026090434354457816 -0.00017701747131616927 -0.15464117954712567 0.384166933718921 0.12160198355709426 -0.0029394305935869997 0.009754288219173395 -0.0038081363823890602 -0.3649685432927189 0.29001700521729196 0.04958576711346502 3.1399890827345254 -3.068723345490237e-05 -2.331172293224213e-05 0.0001101105781733897 5.963236537171991e-05 -0.0015588427558192854 -1.1570197934891802e-06 -3.909684351031061e-06 -4.856024544532878e-07 0.038307227194309235 0.05746084079146385 -9.136273384094238 0.5708117721689651 0.03277011702161514 -9.489377642329533 0.004196489566029236 0.014018368250557316 -0.008724790048100388 -0.365990099009901 0.29 0.05 3.1400000000003274 -4.182523777896853e-14 1.8425963013474134e-14 16799.324977936827
13887.658 -0.9589588220824563 -1.4020598278664052 2.189372728405772 -2.3552654712320376 -1.5608154585812422 0.6135836853707799 0.0018402130724777582 0.005039068479219478 -0.000686861218018061 -0.004351156224855405 -8.796871155498343e-06 0.001882514059835194 0.6953935289006896 0.6851241833665256 -0.774428717517317 0.08865204179686614 -0.0002917649626343888 0.6957449211167921 0.2988320095798451 -1.7602643934128686 -1.89996386558439 -0.36359395300520553 0.00624351199978582 0.059538573809862876 1.6830100979827236 -21.61793323458517 -17.99107915030557 -2.178299457835181 0.04919131634623805 0.14738957973023983 -0.9589164892779749 -1.401998610501625 2.1893208662616175 -2.3552547893919886 -1.560836140309469 0.613649308681488 -0.0004669005866162479 0.0002973275841213763 0.0008509948384016752 -0.005426513031125069 0.0 -0.00024328989093191922 -0.36633676290512085 -1.5210416316986084 -1.2278964519500732 -0.4449251890182495 -0.011657509952783585 0.04577450081706047 -0.36498896621575316 0.2900198006000214 0.04956152390315266 3.139984552484239 -6.715578452677731e-05 2.144090858320304e-05 -0.00037904763070155086 0.0008931620457617828 8.637213077166735e-05 0.0034980419819023384 0.0024630530060572122 -0.00017524302198999804 -0.010001874679844584 0.46271482663162283 0.18891494143958737 0.001637558600393954 0.0161904021770028 -0.012088156351773108 -0.36497059038567986 0.2900175837674484 0.04957046799011902 3.139989077018945 -3.067071772754982e-05 -2.3241273483061884e-05 -0.001053662916377929 5.9049990910609985e-05 -0.0015626704008172064 -4.8519547631076946e-08 -5.1089709324082755e-06 2.178845407703727e-06 0.019153613597154617 0.19153612852096558 -9.21288776397705 0.5708117721689651 0.03277011702161514 -9.489377642329533 -0.0029394305935869997 0.009754288219173395 -0.0038081363823890602 -0.365990099009901 0.29 0.05 3.1400000000003274 -4.182523777896853e-14 1.8425963013474134e-14 16799.335096742827
13887.668 -0.9588638378748353 -1.4019323294281163 2.189281242446791 -2.355301543351832 -1.5608155761812963 0.6136791647251746 0.015142323216550723 0.01850236305232432 -0.015354946703509157 -0.0031585068361830583 -1.401981369493345e-05 0.015198188845422393 1.3351477251629662 1.376435289260014 -1.461433612666596 0.08379277098446991 -0.0005676528713749462 1.3368477008633972 1.0253364216462757 -1.1834816747458263 -2.648068039488565 -0.343340165756808 0.010624302004264022 0.25260475950062894 3.218763496901396 -19.796128048469434 -19.57308793433995 -2.192663503546783 0.08358616136595257 0.28320373954906275 -0.9588387648211878 -1.401907132273056 2.1893027464496058 -2.3552776775755824 -1.560836140309469 0.6136072278022766 0.01597859337925911 0.02251604199409485 -0.018253769725561142 -0.002396423602476716 0.0 0.015904530882835388 0.33990973234176636 -1.267038345336914 -2.014169216156006 -0.4580249786376953 0.003016101196408272 0.2858240604400635 -0.3650144973013255 0.289995545096922 0.04952970187144973 3.1399432047564466 0.00012138031734843821 6.693055938130801e-05 -0.009122812737933157 0.0005072154979010192 -0.002968851975499262 -0.0015427072580376016 -0.0010753188759986406 0.0001358515662939347 0.43070078030673437 0.23125008985376833 0.060358835283003114 -0.004646534449382151 0.017081903329522835 0.006572042437258404 -0.3650231861401143 0.29001831615729085 0.04955143174506141 3.1399890908262624 -3.0600046331022066e-05 -2.312596730225281e-05 -0.008360367738445021 8.426761881024168e-05 -0.002187824889201368 2.378910940544525e-06 -8.992048876501074e-06 6.113966042430377e-06 -0.7852981090545654 -0.1149216815829277 -9.308655738830566 0.5708117721689651 0.03277011702161514 -9.489377642329533 0.001637558600393954 0.0161904021770028 -0.012088156351773108 -0.365990099009901 0.29 0.05 3.1400000000003274 -4.182523777896853e-14 1.8425963013474134e-14 16799.345402496827
13887.678 -0.95864771030159 -1.4016783650297473 2.1890578378648122 -2.3553322713153015 -1.5608157491971326 0.6138959606682414 0.02521487825785273 0.0293549779521178 -0.026177639281570717 -0.003197244118058152 -1.9460467565097557e-05 0.025289231839086757 0.7963080591055771 0.8955673170543132 -0.8395920037718163 -0.056637204818965614 -0.0005407860952377774 0.7981986018943399 0.9008275092156471 -1.29095860595956 -2.502629864445314 -0.3451256164476237 0.006772931905250481 0.24011098140765735 1.9051466557781453 -21.008257343947058 -18.096978773064404 -2.2008795336887634 0.05462100404297704 0.16909410332552902 -0.9586566130267542 -1.401652754550316 2.189023796712057 -2.3552776775755824 -1.5607999006854456 0.6138368248939514 0.02200731448829174 0.03141568973660469 -0.026985077187418938 -0.0027215227019041777 0.0 0.021914977580308914 0.5610889196395874 -1.254958152770996 -1.9978840351104736 -0.46616098284721375 0.00830877386033535 0.3449641466140747 -0.3651438539569214 0.29002140796172315 0.04952080686925364 3.139942236326008 4.762501669550076e-05 -1.6917928180668979e-06 -0.013021043992827712 0.0013386055353203296 -0.0036374740605121156 -0.001421957497430309 -0.0009854819280881869 0.00017464162336325306 0.8346979350358844 0.36877029306364756 0.3629843099954662 0.0045239159957022575 -0.009912981218420417 0.020092254878392165 -0.3651423799740836 0.29001931379824814 0.04952488618829773 3.1399891261133366 -3.047066142149295e-05 -2.2950115301812157e-05 -0.013902785538420942 0.00010870525994263 -0.0029716438731117946 4.170529806176661e-06 -1.2605017710846148e-05 9.629533910988919e-06 -0.7469909191131592 0.13407528400421143 -8.983044624328613 0.5708117721689651 0.03277011702161514 -9.489377642329533 0.001637558600393954 0.0161904021770028 -0.012088156351773108 -0.365990099009901 0.29 0.05 3.1400000000003274 -4.182523777896853e-14 1.8425963013474134e-14 16799.345402496827
13887.688 -0.9583613067214873 -1.4013435185443335 2.18876111981999 -2.355370624245637 -1.5608159758741653 0.6141832206741625 0.030313777548511698 0.035670132111152046 -0.03130714608674691 -0.004386495871857913 -2.476543839950611e-05 0.030406993468560108 0.33033831709428085 0.4638642128862447 -0.30893055224811944 -0.1551083889408389 -0.0005161051730429023 0.33225357941268907 0.7902608777529048 -1.3926123143860871 -2.3759671003337663 -0.36770146447646807 0.0034218085863540427 0.2284712713730335 0.7721367881119561 -22.114972226457294 -16.844588070184415 -2.204880559517174 0.029490529213901818 0.07038636900088156 -0.9584158102618616 -1.4012433898499985 2.188735310231344 -2.355386873284811 -1.5607999006854456 0.6140180826187134 0.02707638405263424 0.03834002837538719 -0.03159911930561066 -0.006201435346156359 0.0 0.027166755869984627 0.5335883498191833 -1.4195669889450073 -1.817428469657898 -0.4210538864135742 -0.007390561979264021 0.3982403576374054 -0.3652916488999079 0.29004337724522533 0.04945696357271803 3.139932357178666 0.00014371731602807764 8.70602877137132e-06 -0.015969917203730973 0.0015616308474308992 -0.004660768178277924 -0.0004710273456839702 -0.00031338242850840656 3.4582070186493785e-05 0.47410640347971394 0.5311049030538072 0.5287270629575698 0.008829233340657886 -0.016147800611446946 0.018322860838480743 -0.36530032303670595 0.29002053154229934 0.04949044432511332 3.139989174076262 -3.0288151658213808e-05 -2.27192194620837e-05 -0.016721303764979437 0.00012862532549076227 -0.0037548241051454895 5.104523242454249e-06 -1.6060303993037e-05 1.278371036050191e-05 0.15322890877723694 0.3064578175544739 -8.465897560119629 0.5708117721689651 0.03277011702161514 -9.489377642329533 0.0045239159957022575 -0.009912981218420417 0.020092254878392165 -0.365990099009901 0.29 0.05 3.1400000000003274 -4.182523777896853e-14 1.8425963013474134e-14 16799.365104823828
13887.697999999999 -0.9580493248575248 -1.4009694787573856 2.1884418843797597 -2.3554256639026008 -1.5608162516945718 0.6144962512606348 0.031304210007838104 0.03809158160652501 -0.03179219282360216 -0.006322614670317751 -2.9138499688799345e-05 0.031416984372394846 -0.0421248656810036 0.10482443256942808 0.10950092943540213 -0.21422433048545741 -0.0003134947994531956 -0.04011727897001993 0.6993308524383006 -1.4813205400779685 -2.2735512923414087 -0.4036493797070107 0.0007499908204184426 0.21845929011221385 -0.1312732314565812 -23.0495053374696 -15.860881987014828 -2.2051889570731147 0.009472452357133997 -0.008498210282471757 -0.9581635634051722 -1.400823326115944 2.1884000937091272 -2.3554235897459925 -1.560824219380514 0.6143432259559631 0.027386585250496864 0.041387058794498444 -0.03057131916284561 -0.007903077639639378 5.918447641306557e-06 0.031665075570344925 0.6268963813781738 -1.6894029378890991 -1.9005825519561768 -0.4434564411640167 -0.012906285002827644 0.39672237634658813 -0.3654407857772856 0.29006899427279903 0.049398621567400935 3.139906710178926 3.1008393454716546e-05 8.346309994800359e-05 -0.015800626745329966 0.001061868751371838 -0.006248417845456836 -0.0024151080434078264 -0.0016807435689285887 -0.004136743919702732 -0.19719523758146798 0.5111228522859633 -0.2971840036195825 -0.00865628020047564 0.03492813517059575 0.016806974979561753 -0.36547251572183814 0.29002192253148323 0.049448537075734794 3.1399892270099867 -3.0077680873976876e-05 -2.2439249238442273e-05 -0.017286368647260915 0.00014419024105030408 -0.004469391961111872 5.3321657937432e-06 -1.864894991160493e-05 1.3355379223436992e-05 0.038307227194309235 0.019153613597154617 -9.174580574035645 0.5708117721689651 0.03277011702161514 -9.489377642329533 0.0045239159957022575 -0.009912981218420417 0.020092254878392165 -0.365990099009901 0.29 0.05 3.1400000000003274 -4.182523777896853e-14 1.8425963013474134e-14 16799.365104823828
13887.707999999999 -0.9577469735434594 -1.40059044586374 2.1881395632969216 -2.3555026003454085 -1.5608165519309836 0.6147998526791322 0.029174703181406338 0.037423742099245816 -0.028810553878371347 -0.008635183957113862 -3.0240634699587618e-05 0.02930788063229216 -0.3132100240945679 -0.16949169271041065 0.40779651583600085 -0.2382106535452344 -1.1595144844278593e-05 -0.3111740574973654 0.6307228331180251 -1.5530452628200928 -2.198173483396958 -0.4462145126189064 -0.00115188548401667 0.21051583410590272 -0.7868246528984209 -23.778144033704987 -15.164016556311315 -2.202690315305272 -0.0050321390815571115 -0.06592000505299327 -0.9579008261310022 -1.4003804934075852 2.1881492773639124 -2.3555199108519496 -1.5608122984515589 0.6146435141563416 0.02573775127530098 0.04091010242700577 -0.02693566307425499 -0.011419983580708504 7.023216643670116e-12 0.034419767558574677 0.5674962997436523 -1.833608865737915 -1.9110841751098633 -0.45400142669677734 -0.004342339932918549 0.36502617597579956 -0.3655818321504938 0.29005894138062704 0.04930422651470048 3.13982129472412 -2.5645428163234918e-05 0.0001547332000093892 -0.014753383529117843 0.0008483148397861668 -0.007058818838901723 -0.0021167632992355663 -0.00148768999956234 -0.008513012119752195 -0.6106851773654972 -0.11585851689077975 -0.1718380386076337 -0.008122591460453795 0.05242330355231097 0.014852938391163705 -0.3656396359637691 0.2900234566186214 0.049400154481786 3.1399892796403837 -2.9896250564690473e-05 -2.215251646307649e-05 -0.016138619338849938 0.00015822254476575423 -0.005067275736058257 5.307874946455124e-06 -1.7487912806823096e-05 9.878034562111476e-06 0.0 -0.1149216815829277 -9.615114212036133 0.5708117721689651 0.03277011702161514 -9.489377642329533 -0.00865628020047564 0.03492813517059575 0.016806974979561753 -0.365990099009901 0.29 0.05 3.1400000000003274 -4.182523777896853e-14 1.8425963013474134e-14 16799.385091324828
13887.717999999999 -0.9574793570419677 -1.400232077954998 2.1878816492191024 -2.3556032691251314 -1.560816851491424 0.6150689197623626 0.024937947149447158 0.03454394975592301 -0.02355109592951712 -0.011013602484176982 -2.9819673503448728e-05 0.02509070076083133 -0.4843103906532198 -0.3547405535655468 0.589777695579663 -0.23472298128401903 -6.031766419667406e-06 -0.4824263850272681 0.5848893799768206 -1.6050855214269488 -2.1497044614326373 -0.4714921889945311 -0.00234922209410649 0.20483237399302512 -1.1987233524154348 -24.281725214110512 -14.743728334475104 -2.198573887426353 -0.014305048170953145 -0.1021988435460863 -0.9576628843890589 -1.3999993664077302 2.187887493764059 -2.3556653461852015 -1.5608122984515589 0.614990770816803 0.021259699016809464 0.035449158400297165 -0.02321420982480049 -0.01564374379813671 8.334208630941277e-18 0.033942580223083496 0.5676171779632568 -1.80686616897583 -1.8117421865463257 -0.4219245910644531 -0.020132001489400864 0.259233295917511 -0.36572780968030727 0.2900802500744773 0.0492463907383589 3.139842329670765 -0.00019419696463239002 0.00013126405755429528 -0.0132878343345905 0.0022413671927881324 -0.0055981243563608275 0.0027593085394350776 0.001945579036012932 -0.012484613274549961 0.011547334224129362 0.691336132864238 -0.2681241344224998 -0.006247435568905997 0.018070348024237418 0.01307779036451904 -0.3657878954414279 0.29002513973071914 0.04934663515605825 3.139989338408079 -2.980013293087703e-05 -2.1911178879643236e-05 -0.013832875262889812 0.0001742865819574303 -0.005523479351620521 6.131554860097009e-06 -1.4143108592195823e-05 3.3312307367756866e-06 0.2298433631658554 0.1149216815829277 -9.366117477416992 0.5708117721689651 0.03277011702161514 -9.489377642329533 -0.008122591460453795 0.05242330355231097 0.014852938391163705 -0.365990099009901 0.29 0.05 3.1400000000003274 -4.182523777896853e-14 1.8425963013474134e-14 16799.395152710826
13887.728 -0.9572617771096139 -1.3999112093918331 2.1876842912584262 -2.355726951122108 -1.5608171561491524 0.6152881329397794 0.01954184300823774 0.030323415941097706 -0.017097799879073578 -0.013239592041915525 -3.120483839769229e-05 0.019711815425491847 -0.5650718026763979 -0.45659992539248684 0.6700758346500635 -0.21257611766678508 -0.0002351355674612421 -0.5634748390169753 0.5602975606229922 -1.637807051065716 -2.1252398349777635 -0.471421888261047 -0.002948765376194728 0.2013628852233405 -1.390475463543687 -24.572737562312582 -14.563584635360304 -2.193802262717413 -0.018745760960286746 -0.11936854286067394 -0.9574726263629358 -1.3996661764434357 2.1876853148089808 -2.355821271935934 -1.5608480612384241 0.615300178527832 0.016929717734456062 0.02981395088136196 -0.01719420775771141 -0.014478244818747044 9.889917614319616e-24 0.029014937579631805 0.5696356892585754 -1.8011274337768555 -1.7014210224151611 -0.3915413022041321 -0.010845954529941082 0.14833924174308777 -0.36583894291324837 0.2901048824599217 0.04918860865744784 3.1398830531675483 -0.00037808816178211164 0.00015465961424652937 -0.010379489368866157 0.001489245495175941 -0.005456074384757524 0.0014968601478912746 0.0010556479090457244 -0.011909190123225454 0.8427600189082418 0.8581080792787049 -0.16919419498285898 -0.010018712240845586 -0.006306841584563853 0.014150758214537061 -0.3659088712564326 0.2900269966027405 0.049289390340270356 3.13998939232252 -2.982302547718577e-05 -2.1686610962788704e-05 -0.010887260514239105 0.00019219200590946337 -0.005841367683163997 4.555338391093166e-06 -1.508157233333136e-05 -4.7346544803199275e-06 0.24899697303771973 0.3064578175544739 -9.27034854888916 0.5708117721689651 0.03277011702161514 -9.489377642329533 -0.008122591460453795 0.05242330355231097 0.014852938391163705 -0.365990099009901 0.29 0.05 3.1400000000003274 -4.182523777896853e-14 1.8425963013474134e-14 16799.395152710826
13887.738 -0.9571008319254046 -1.399636641026115 2.187553896315915 -2.3558711999650512 -1.5608174872292224 0.615450863676287 0.013793658687619056 0.025510358229230694 -0.010344232590074932 -0.015169241333961402 -3.4409836382140644e-05 0.013977437871077646 -0.5733444864258752 -0.4895100011639286 0.6696182650292037 -0.1790295635735184 -0.0003022147134768005 -0.5721153952105151 0.5532675396519949 -1.653665813103148 -2.120414367241912 -0.471273194349419 -0.0030629049215087434 0.19980356782169914 -1.4057440563995032 -24.68412579390769 -14.574375098684545 -2.1889901807467265 -0.019217937900397015 -0.121199067572029 -0.957318131123678 -1.3994411540082474 2.1875675360309046 -2.3559891186156214 -1.560824219380514 0.6155486702919006 0.012568744830787182 0.023361340165138245 -0.010622456669807434 -0.015422604978084564 1.173602275115204e-29 0.01981857232749462 0.523670494556427 -1.6838637590408325 -1.645301103591919 -0.3773425817489624 -0.01162855327129364 0.07248399406671524 -0.3659348644244203 0.29010972716102656 0.049148738179871365 3.139918602996804 -0.0005228087032628818 6.934608817610004e-05 -0.0076541155833465295 0.001022237451505001 -0.004942885354065019 0.002173731064158182 0.0015412593450045851 -0.007078280950287933 0.4247165683084308 0.5953436758567364 -0.10321200050966216 -0.01232853850725034 0.013067904586094883 0.012482540516351028 -0.3659988774668087 0.2900290032999028 0.04922972964174302 3.1399894180345127 -2.997516705743106e-05 -2.1405274792390915e-05 -0.007740746846133522 0.00020539328629064888 -0.006034205049959043 1.1842502675785315e-06 -1.9962469813575338e-05 -1.290667628498117e-05 0.19153612852096558 0.038307227194309235 -9.155426979064941 0.5708117721689651 0.03277011702161514 -9.489377642329533 -0.010018712240845586 -0.006306841584563853 0.014150758214537061 -0.365990099009901 0.29 0.05 3.1400000000003274 -4.182523777896853e-14 1.8425963013474134e-14 16799.415162885827
13887.748 -0.9569963296594644 -1.3994106063488365 2.1874892511264115 -2.3560325624717287 -1.5608178447527994 0.615557266674101 0.008283445170273532 0.02069734337914119 -0.003962534871309944 -0.01672863890568216 -3.6320186830628237e-05 0.00847721274995729 -0.5309855481484549 -0.4701632648822507 0.6111597615747755 -0.14020198640718462 -7.713276906073929e-05 -0.5301351762055928 0.4421308181544055 -1.6561826926742016 -1.7609944163527367 -0.47109545559808197 -0.002789267277359439 0.16732822688345203 -1.2989217506750887 -24.658340481555896 -14.71950936139089 -2.1846580863041813 -0.016868514680932176 -0.11230587887267686 -0.9572599569903772 -1.3992274713567276 2.1875227133380335 -2.356180807153219 -1.5608122984515589 0.6157008409500122 0.00814620777964592 0.01783762499690056 -0.002802303759381175 -0.015979405492544174 1.3926731023341032e-35 0.010272339917719364 0.4334643483161926 -1.6677216291427612 -1.4901645183563232 -0.3509574234485626 -0.016610782593488693 0.062473271042108536 -0.3659822053304284 0.290125818332437 0.04908888879023271 3.1399301610687114 -0.0006673187705101368 3.328020399470184e-05 -0.0044090422831152744 -0.00012891098101967878 -0.005351898973762371 0.0007562113850182364 0.0005479140315079002 -0.0019631940069334396 -0.23246499321848307 0.6037530331775122 -0.025527649817982338 0.00018040987082840903 0.050904527887351454 0.006088684679556097 -0.3660579708295423 0.29003113474948383 0.04916878498147029 3.139989412354672 -3.0248047613967154e-05 -2.105678736112997e-05 -0.004722604217316897 0.0002183521816951703 -0.00612236038680853 -1.6190628651861318e-06 -2.3271024031165046e-05 -2.0183428255788477e-05 0.24899697303771973 0.19153612852096558 -9.097966194152832 0.5708117721689651 0.03277011702161514 -9.489377642329533 -0.01232853850725034 0.013067904586094883 0.012482540516351028 -0.365990099009901 0.29 0.05 3.1400000000003274 -4.182523777896853e-14 1.8425963013474134e-14 16799.425200736827
13887.758 -0.9569433829477019 -1.3992304629048462 2.187483778937309 -2.356207133303627 -1.5608182046709729 0.6156121921551411 0.0034071224654057125 0.016303183893171886 0.001598015301574354 -0.01788877978777114 -3.551480004576518e-05 0.0036072661150592282 -0.4551789603920442 -0.4151047260116947 0.5155361176329976 -0.09983540427915827 0.00014208156340345113 -0.4546837288796901 0.12323480747597568 -1.6488479845642363 -1.3983177443830082 -0.4708541054237349 -0.0022372669040204318 0.06489935438314402 -1.111491384973367 -24.53577276625891 -14.949063628911277 -2.1805949382611054 -0.012720311452103315 -0.09632200048680638 -0.9571784178363245 -1.3990854185870667 2.187561337147848 -2.3563362560667933 -1.560824219380514 0.6157215237617493 0.0017216199776157737 0.013240652158856392 0.00427286745980382 -0.014901477843523026 1.6526914088246893e-41 0.00037816769327037036 0.25125330686569214 -1.6840636730194092 -1.2676975727081299 -0.3680329918861389 -0.02308177761733532 0.008215527050197124 -0.3660051006179212 0.2900997683816252 0.04902617275326607 3.1399163376374957 -0.0005694218705182006 7.129479868516176e-05 -0.0005112615478651927 -0.0006462965129850223 -0.006057133327772253 -0.0021449995204061052 -0.0014923148607446995 0.0014846470223658726 -0.36717669374574435 0.7393815629240928 -0.09527484330393607 -0.004493244648482556 0.0583358291274915 0.006610180248466842 -0.36608884352489013 0.2900334180663134 0.0491074712079104 3.1399893832467756 -3.062348566090339e-05 -2.069027229525229e-05 -0.002054926771871472 0.00023526039433762087 -0.006127945003400957 -3.8144664683138325e-06 -2.3177731907239146e-05 -2.6168390717846556e-05 0.4596867263317108 0.19153612852096558 -9.078812599182129 0.5708117721689651 0.03277011702161514 -9.489377642329533 -0.01232853850725034 0.013067904586094883 0.012482540516351028 -0.365990099009901 0.29 0.05 3.1400000000003274 -4.182523777896853e-14 1.8425963013474134e-14 16799.425200736827
13887.768 -0.9569340185583357 -1.399090267361684 2.1875275188933245 -2.3563909080491197 -1.5608185509634502 0.6156235780712738 -0.0005804337133322478 0.01260282565672528 0.0060674551722577404 -0.018651700426833985 -3.432498170573403e-05 -0.0003774298232484261 -0.3591204787322111 -0.33767981975052486 0.3992398820735765 -0.06091776912420244 -1.1245254283309691e-05 -0.3589865413043958 -0.1291620987281055 -1.634621808429703 -1.1425554493965466 -0.47059024934691207 -0.0015437621981346376 -0.01805615279346039 -0.8752043349368265 -24.34985463935198 -15.22635992568436 -2.1771133790071353 -0.007531307288110103 -0.07604918065048158 -0.9571917692767542 -1.3989670884660264 2.1876476446734827 -2.356431623498434 -1.5607760588275355 0.6157076954841614 -0.0024557490833103657 0.00904061645269394 0.010199823416769505 -0.013885658234357834 0.0 -0.004770694300532341 0.10919612646102905 -1.6164875030517578 -1.144542932510376 -0.41127413511276245 -0.011005034670233727 -0.06076391413807869 -0.3659909267431129 0.2900687828230653 0.04895022687280989 3.1397991885870393 -0.0005675477004525968 0.00010830704758815604 0.0023985079848236027 -0.00151149080509056 -0.006501649103742619 -0.004382296706189901 -0.0030700960135153148 0.0024366121854530773 0.26907942550147973 0.1635786944430364 -0.03512705408926051 -0.01581040701200192 0.02402670502692432 0.004556154996489792 -0.36609589553591815 0.29003588619266746 0.0490464813183841 3.139989327743337 -3.107715060466071e-05 -2.0328143669258777e-05 0.00012313329161585615 0.0002545402916738691 -0.006072993382486215 -6.680985827362938e-06 -2.3391596416247895e-05 -3.0391617140184497e-05 0.2106897532939911 -0.038307227194309235 -9.289502143859863 0.5708117721689651 0.03277011702161514 -9.489377642329533 -0.004493244648482556 0.0583358291274915 0.006610180248466842 -0.365990099009901 0.29 0.05 3.1400000000003274 -4.182523777896853e-14 1.8425963013474134e-14 16799.445238138826
13887.778 -0.9569584836165355 -1.3989820701648856 2.187608721908456 -2.356580082548648 -1.5608189068096223 0.6156011411555697 -0.003552377941980172 0.009749172168739557 0.009325485961300199 -0.019049390118526695 -3.6939308227882704e-05 -0.003350126348168856 -0.2557265773528439 -0.24969351321635358 0.27680447824174337 -0.02643393364643032 -0.00041094391178830847 -0.255929293103363 -0.3088784915942532 -1.6361903876091015 -0.9646547917062471 -0.47032221873110386 -0.0008798496667347591 -0.07964491714809663 -0.6217258573655315 -24.134748914076237 -15.514932978621951 -2.1742937670208713 -0.002087436741015012 -0.054217169886891355 -0.9572647253619593 -1.3989081543735047 2.1877926031695765 -2.3565885029234828 -1.5608122984515589 0.6156591773033142 -0.0054208035580813885 0.006578980479389429 0.013632320798933506 -0.016394255682826042 0.0 -0.006552705075591803 0.0120051559060812 -1.59621000289917 -1.0526291131973267 -0.4265255928039551 -0.025345636531710625 -0.13679684698581696 -0.36593691419135416 0.29006464226409123 0.04888496326732883 3.139781639893084 -0.0006037657622520495 0.0001970631284391729 0.0037855680208002947 -0.0011724098405474787 -0.006437562403816111 -0.003125235575281973 -0.002181978598137107 0.001270236240665328 0.9834962735118066 0.9802482487777497 -0.09569582908112625 0.005423906540364897 -0.004992973806467921 -0.007870452837839567 -0.3660844860179934 0.29003855207971185 0.04898629654897657 3.139989249422364 -3.157452148182508e-05 -1.9925503349512126e-05 0.0017437254141465831 0.00027457259522916755 -0.00597807324675035 -8.425608568175357e-06 -2.7720649602845154e-05 -3.218851849588408e-05 -0.09576806426048279 0.2106897532939911 -9.346963882446289 0.5708117721689651 0.03277011702161514 -9.489377642329533 -0.01581040701200192 0.02402670502692432 0.004556154996489792 -0.365990099009901 0.29 0.05 3.1400000000003274 -4.182523777896853e-14 1.8425963013474134e-14 16799.455513738827
13887.787999999999 -0.9570065299160042 -1.3988970853564782 2.187715291390976 -2.3567713444664395 -1.5608193071316183 0.6155550979066273 -0.005508857751467686 0.007779332145077601 0.011394033048522509 -0.019141611851826525 -4.2041965646381677e-05 -0.00531017346982074 -0.15690296009440718 -0.1630175453986027 0.16243693831530237 0.0011785847453538167 -0.00044494780038206727 -0.15735513059200734 -0.4195561240087752 -1.7697237235370094 -0.9474548517333278 -0.4701142405259502 -0.0002711673318222743 -0.11941094530163256 -0.37975599835088475 -23.918448147437015 -15.783975718424601 -2.1725170751641842 0.00324691751315055 -0.033334857510481805 -0.957313362752096 -1.3988854897073288 2.1879008452044886 -2.3567568264403285 -1.560836140309469 0.6156225800514221 -0.007015774957835674 0.0029342889320105314 0.014891444705426693 -0.01725888065993786 0.0 -0.00875533651560545 -0.09547726809978485 -1.6366524696350098 -1.0553293228149414 -0.4429877996444702 -0.031061112880706787 -0.15124624967575073 -0.36590783913231245 0.2900714780562605 0.04885088206253274 3.13982592421817 -0.0006203356550039962 0.00019356408563502242 0.004271106441814749 -0.0006187009461885813 -0.005191039068392696 -0.00046786206380075666 -0.0003074080272260047 0.001881161028604873 0.703819260509652 0.5517139658446513 0.09733143834543216 -0.01151158418396028 0.006938865354226014 -0.04960500777106838 -0.3660602412935374 0.29004142103333713 0.04892719901625339 3.1399891603377834 -3.207928500822745e-05 -1.9425270271979667e-05 0.0028069218890561165 0.0002944371235688871 -0.0058624382543976785 -9.246461869228987e-06 -3.462796762713107e-05 -3.1814053868159733e-05 -0.13407529890537262 0.07661445438861847 -9.308656692504883 0.5708117721689651 0.03277011702161514 -9.489377642329533 0.005423906540364897 -0.004992973806467921 -0.007870452837839567 -0.365990099009901 0.29 0.05 3.1400000000003274 -4.182523777896853e-14 1.8425963013474134e-14 16799.465299013827
13887.797999999999 -0.9570685465148223 -1.398826861098562 2.187836163837009 -2.3569620938205045 -1.5608197448122123 0.6154950352751678 -0.00655297273474674 0.0066181296935767684 0.012423713838996374 -0.01900560733854997 -4.442136886210601e-05 -0.0063600982491062285 -0.07215611590227766 -0.08660068943755483 0.06618593508767034 0.020687568462740558 -8.030094433841839e-05 -0.07284705931676072 -0.4706890290640521 -1.8420324880282706 -0.9687368213654272 -0.46994534590558024 0.00029880330108225265 -0.13983984911871594 -0.1725667691952163 -23.725203842367755 -16.008814825129864 -2.171475052001646 0.007937624947275599 -0.015432363033034507 -0.9573610464679163 -1.3988608878901978 2.1880438963519495 -2.3569122753539027 -1.5607999006854456 0.6155028343200684 -0.00664347130805254 0.005191253498196602 0.014350364916026592 -0.017597761005163193 0.0 -0.008990838192403316 -0.14573287963867188 -1.6216444969177246 -0.9694758653640747 -0.4504547715187073 -0.03459710255265236 -0.17394959926605225 -0.36587871946163103 0.29005123470238126 0.048801608111156414 3.139795017088798 -0.0005053562056370365 0.00015787309884936196 0.004094422826151228 -0.0006614037361273709 -0.005964428937335195 -0.0015943714750347217 -0.0010983981674253527 0.002494574674147489 -0.17635752191635565 0.43015827283152575 0.029741653771758036 -0.0004292115998334855 0.03257196418765518 -0.0821355946380207 -0.3660284205889411 0.29004445460556066 0.04886930060004471 3.139989059414269 -3.25595707819583e-05 -1.883742880096194e-05 0.003371621660672313 0.00030867901967533657 -0.005741522061379462 -1.0628075245913606e-05 -3.873532000048943e-05 -2.9393556788757415e-05 -0.019153613597154617 -0.038307227194309235 -9.289502143859863 0.5708117721689651 0.03277011702161514 -9.489377642329533 0.005423906540364897 -0.004992973806467921 -0.007870452837839567 -0.365990099009901 0.29 0.05 3.1400000000003274 -4.182523777896853e-14 1.8425963013474134e-14 16799.465299013827
13887.807999999999 -0.9571364013737309 -1.3987643758146326 2.187961954363318 -2.357150004307469 -1.5608201831989632 0.6154290563281792 -0.006844811767916118 0.006013704244446814 0.01254547772500376 -0.01852300013884585 -4.295454477661219e-05 -0.006661947056815716 -0.00012286245254511385 -0.06568060540734777 -0.03265952756636992 0.098181156471977 0.0002960723759493078 -0.0015876267055459081 -0.47198794005445505 -1.8875295801741898 -0.993098830729315 -0.4686009669623577 0.0008406139798873693 -0.14442101146274897 0.013180933979901175 -23.705304337062614 -16.25657978669061 -2.1620404898739056 0.011923434594720572 -0.00033662272845254375 -0.9574444929706019 -1.3988020432046433 2.18813926378359 -2.3570920429625453 -1.5608122984515589 0.6154789924621582 -0.006057004909962416 0.0018879015697166324 0.012826384976506233 -0.017730114981532097 0.0 -0.0091021116822958 -0.2439352571964264 -1.477662444114685 -0.9546182155609131 -0.46444568037986755 -0.02389001101255417 -0.16423651576042175 -0.3658451809811088 0.29007370353158896 0.04875730432268591 3.1398229655383276 -0.0005964102889000887 0.00015035888103505604 0.0032213693907480615 0.00012094899557160926 -0.0038988999072335035 0.002459905913705559 0.0017583821154467808 0.0031924186249323227 -0.39029731586637234 0.22171262085761773 0.14637107826103135 -0.00014571539190841006 0.0423575441762436 -0.109078767657123 -0.3659934773424519 0.29004761304196636 0.04881274899793417 3.139988950329909 -3.297681359781208e-05 -1.823402154103848e-05 0.0035252755206446906 0.00031806913272109527 -0.005563573107647727 -1.0937858061964586e-05 -3.7688136904034396e-05 -2.4407841230613542e-05 0.038307227194309235 0.13407529890537262 -9.155426979064941 0.5708117721689651 0.03277011702161514 -9.489377642329533 -0.0004292115998334855 0.03257196418765518 -0.0821355946380207 -0.365990099009901 0.29 0.05 3.1400000000003274 -4.182523777896853e-14 1.8425963013474134e-14 16799.485297505827
13887.818 -0.957203146351219 -1.3987085253320206 2.1880828160078383 -2.3573263705317267 -1.5608205884896318 0.6153640189714666 -0.006501654011408171 0.005398089691474694 0.011730848723033153 -0.017095385863932246 -3.9019304055413755e-05 -0.006339913218202007 0.049225979382616636 -0.015039744269529365 -0.08557163871358853 0.10040208934603001 0.0003017798815285744 0.04690943949015036 -0.4361285187655087 -1.9228314327787412 -1.0058512548786835 -0.46835003143805354 0.0012475581632459486 -0.13610767409902852 0.1325344353967183 -23.571764439467813 -16.378233423532933 -2.1628213493446333 0.014557543115769867 0.009937027941630969 -0.9574802557574671 -1.3988022071174164 2.1882832686053675 -2.35734285930776 -1.5608122984515589 0.6154189705848694 -0.004352501593530178 0.001493553863838315 0.011845692992210388 -0.015643885359168053 0.0 -0.008557194843888283 -0.2515932321548462 -1.5205190181732178 -0.9789544343948364 -0.4721531271934509 -0.02801382914185524 -0.1636759638786316 -0.36582735083698054 0.2900759301665801 0.04872824345850091 3.1399103346049784 -0.0005549592800163978 5.333588447864208e-05 0.0027061040814943395 -0.0004703837509533011 -0.0035607878843597262 0.0018800065873372355 0.00134592080004564 0.004333923507935599 0.3063817429902171 0.4625210600531089 0.0365912501294962 0.0036609831690753835 0.017118854484388334 -0.131972619233691 -0.3659591126118175 0.29005072975545076 0.048759881033901886 3.139988843927592 -3.329393313176334e-05 -1.767613939940273e-05 0.0033441990043274533 0.00030793927129936586 -0.005123073496183324 -1.0484247699328745e-05 -3.420470209188559e-05 -1.5802561210555115e-05 -0.038307227194309235 0.17238251864910126 -9.136273384094238 0.5708117721689651 0.03277011702161514 -9.489377642329533 -0.00014571539190841006 0.0423575441762436 -0.109078767657123 -0.365990099009901 0.29 0.05 3.1400000000003274 -4.182523777896853e-14 1.8425963013474134e-14 16799.495321728828
13887.828 -0.9572645686839749 -1.398651421537794 2.188195602079737 -2.357495930447694 -1.5608209716135768 0.6153040687148685 -0.005868274867561867 0.006036375555173019 0.010974238993685718 -0.016977802879424353 -3.828307251428079e-05 -0.005731602956330262 0.07446965119406457 0.08913336185711884 -0.0813123636631552 -0.007858762606893777 -4.8521650697352925e-05 0.07162129360949177 -0.38786011082074373 -1.8409881405230133 -1.0022083918502775 -0.47038044601467216 0.001426008132365298 -0.1222445481613974 0.17651906129461553 -23.246057923029305 -16.33437430703933 -2.1786789973317613 0.01583818385388254 0.015171984348141234 -0.9575160185443323 -1.398777188067772 2.18842584291567 -2.3574382267394007 -1.560824219380514 0.6153717637062073 -0.0033257293980568647 0.00448220269754529 0.010764761827886105 -0.015131770633161068 0.0 -0.006990889087319374 -0.2244895100593567 -1.560489296913147 -0.9627000689506531 -0.515289843082428 -0.015173813328146935 -0.1660626083612442 -0.3657830503669859 0.2900460998797652 0.048672999921684 3.1398581857110908 -0.0005358615506806831 0.00013386137040472318 0.0023463483504315144 -0.0007615011087654265 -0.004543927983637414 -9.951399336056531e-05 -4.854068797897326e-05 0.0037935464574238983 0.7854364296753724 0.4137564251438056 0.12475613426458589 -0.003719897384117435 -0.0022635187212654917 -0.14617618136044278 -0.36592769494918426 0.290053874644206 0.04870881374467412 3.139988737125055 -3.3321833584752075e-05 -1.7150029529170874e-05 0.0029869728912644807 0.00032011819823852633 -0.005136021581997248 -1.0815583552695622e-05 -3.3433341664894256e-05 9.607428231764303e-06 -0.13407529890537262 0.19153612852096558 -9.174580574035645 0.5708117721689651 0.03277011702161514 -9.489377642329533 0.0036609831690753835 0.017118854484388334 -0.131972619233691 -0.365990099009901 0.29 0.05 3.1400000000003274 -4.182523777896853e-14 1.8425963013474134e-14 16799.505297941825
